(Generated by rs_cam)
G17 G21 G90 G40 G49 G80
M3 S18000
(Op 0 — adaptive3d (6.35mm flat))
G0 X0.270 Y0.268 Z20.000
G0 X0.270 Y0.268 Z14.000
G1 X2.771 Y0.709 Z13.972 F500
G1 X2.656 Y1.137 Z13.944
G1 X2.469 Y1.538 Z13.917
G1 X2.215 Y1.901 Z13.889
G1 X1.902 Y2.214 Z13.861
G1 X1.540 Y2.468 Z13.833
G1 X1.138 Y2.655 Z13.806
G1 X0.711 Y2.769 Z13.778
G1 X0.270 Y2.808 Z13.750
G1 X-0.171 Y2.769 Z13.722
G1 X-0.599 Y2.655 Z13.694
G1 X-1.000 Y2.468 Z13.667
G1 X-1.363 Y2.214 Z13.639
G1 X-1.676 Y1.901 Z13.611
G1 X-1.930 Y1.538 Z13.583
G1 X-2.117 Y1.137 Z13.556
G1 X-2.232 Y0.709 Z13.528
G1 X-2.270 Y0.268 Z13.500
G1 X-2.232 Y-0.173 Z13.472
G1 X-2.117 Y-0.601 Z13.444
G1 X-1.930 Y-1.002 Z13.417
G1 X-1.676 Y-1.365 Z13.389
G1 X-1.363 Y-1.678 Z13.361
G1 X-1.000 Y-1.932 Z13.333
G1 X-0.599 Y-2.119 Z13.306
G1 X-0.171 Y-2.234 Z13.278
G1 X0.270 Y-2.272 Z13.250
G1 X0.711 Y-2.234 Z13.222
G1 X1.138 Y-2.119 Z13.194
G1 X1.540 Y-1.932 Z13.167
G1 X1.902 Y-1.678 Z13.139
G1 X2.215 Y-1.365 Z13.111
G1 X2.469 Y-1.002 Z13.083
G1 X2.656 Y-0.601 Z13.056
G1 X2.771 Y-0.173 Z13.028
G1 X2.810 Y0.268 Z13.000
G1 X2.771 Y0.709 Z12.972
G1 X2.656 Y1.137 Z12.944
G1 X2.469 Y1.538 Z12.917
G1 X2.215 Y1.901 Z12.889
G1 X1.902 Y2.214 Z12.861
G1 X1.540 Y2.468 Z12.833
G1 X1.138 Y2.655 Z12.806
G1 X0.711 Y2.769 Z12.778
G1 X0.270 Y2.808 Z12.750
G1 X-0.171 Y2.769 Z12.722
G1 X-0.599 Y2.655 Z12.694
G1 X-1.000 Y2.468 Z12.667
G1 X-1.363 Y2.214 Z12.639
G1 X-1.676 Y1.901 Z12.611
G1 X-1.930 Y1.538 Z12.583
G1 X-2.117 Y1.137 Z12.556
G1 X-2.232 Y0.709 Z12.528
G1 X-2.270 Y0.268 Z12.500
G1 X-2.232 Y-0.173 Z12.472
G1 X-2.117 Y-0.601 Z12.444
G1 X-1.930 Y-1.002 Z12.417
G1 X-1.676 Y-1.365 Z12.389
G1 X-1.363 Y-1.678 Z12.361
G1 X-1.000 Y-1.932 Z12.333
G1 X-0.599 Y-2.119 Z12.306
G1 X-0.171 Y-2.234 Z12.278
G1 X0.270 Y-2.272 Z12.250
G1 X0.711 Y-2.234 Z12.222
G1 X1.138 Y-2.119 Z12.194
G1 X1.540 Y-1.932 Z12.167
G1 X1.902 Y-1.678 Z12.139
G1 X2.215 Y-1.365 Z12.111
G1 X2.469 Y-1.002 Z12.083
G1 X2.656 Y-0.601 Z12.056
G1 X2.771 Y-0.173 Z12.028
G1 X2.810 Y0.268 Z12.000
G1 X0.270 Y0.268 Z12.000
G1 X1.036 Y0.473 Z12.000 F1500
G1 X1.724 Y0.870 Z12.000
G1 X2.511 Y0.974 Z12.000
G1 X3.047 Y1.559 Z12.000
G1 X5.210 Y2.503 Z12.000
G1 X5.681 Y3.142 Z12.000
G1 X7.575 Y4.576 Z12.000
G1 X8.634 Y5.754 Z12.000
G1 X10.520 Y7.193 Z12.000
G1 X14.318 Y11.242 Z12.000
G1 X15.678 Y13.188 Z12.000
G1 X19.011 Y16.583 Z12.000
G1 X19.892 Y17.897 Z12.000
G1 X20.519 Y18.384 Z12.000
G1 X23.230 Y21.280 Z12.000
G1 X24.111 Y22.594 Z12.000
G1 X24.410 Y23.329 Z12.000
G1 X24.971 Y23.891 Z12.000
G1 X25.246 Y24.635 Z12.000
G1 X29.053 Y28.670 Z12.000
G1 X29.934 Y29.983 Z12.000
G1 X32.168 Y34.182 Z12.000
G1 X33.158 Y35.416 Z12.000
G1 X35.407 Y37.650 Z12.000
G1 X36.280 Y38.968 Z12.000
G1 X38.517 Y43.167 Z12.000
G1 X39.508 Y44.400 Z12.000
G1 X41.756 Y46.635 Z12.000
G1 X42.630 Y47.953 Z12.000
G1 X44.128 Y48.467 Z12.000
G1 X44.893 Y48.256 Z12.000
G1 X47.241 Y48.304 Z12.000
G1 X48.012 Y48.115 Z12.000
G1 X48.863 Y46.786 Z12.000
G1 X48.890 Y45.993 Z12.000
G1 X48.610 Y43.629 Z12.000
G1 X48.315 Y42.892 Z12.000
G1 X48.403 Y37.350 Z12.000
G1 X48.087 Y34.997 Z12.000
G1 X47.637 Y33.484 Z12.000
G1 X47.266 Y32.783 Z12.000
G1 X46.610 Y29.684 Z12.000
G1 X45.694 Y27.495 Z12.000
G1 X44.435 Y22.088 Z12.000
G1 X44.451 Y21.294 Z12.000
G1 X44.132 Y20.567 Z12.000
G1 X43.229 Y16.704 Z12.000
G1 X40.913 Y12.548 Z12.000
G1 X40.401 Y11.051 Z12.000
G1 X39.724 Y7.955 Z12.000
G1 X39.337 Y7.261 Z12.000
G1 X39.283 Y6.469 Z12.000
G1 X37.748 Y0.309 Z12.000
G1 X37.971 Y-0.452 Z12.000
G1 X37.715 Y-1.204 Z12.000
G1 X37.397 Y-4.360 Z12.000
G1 X37.524 Y-5.144 Z12.000
G1 X37.644 Y-13.079 Z12.000
G1 X38.196 Y-16.199 Z12.000
G1 X38.692 Y-17.701 Z12.000
G1 X41.584 Y-21.473 Z12.000
G1 X42.338 Y-22.863 Z12.000
G1 X42.946 Y-26.761 Z12.000
G1 X43.249 Y-27.494 Z12.000
G1 X43.799 Y-28.067 Z12.000
G1 X44.355 Y-29.547 Z12.000
G1 X44.900 Y-30.125 Z12.000
G1 X45.274 Y-30.825 Z12.000
G1 X45.466 Y-31.595 Z12.000
G1 X46.340 Y-32.913 Z12.000
G1 X46.505 Y-33.689 Z12.000
G1 X48.033 Y-35.504 Z12.000
G1 X48.172 Y-36.285 Z12.000
G1 X48.378 Y-47.394 Z12.000
G1 X48.061 Y-49.748 Z12.000
G1 X45.707 Y-49.968 Z12.000
G1 X43.415 Y-49.359 Z12.000
G1 X42.852 Y-48.799 Z12.000
G1 X39.450 Y-46.762 Z12.000
G1 X37.983 Y-46.170 Z12.000
G1 X37.202 Y-46.028 Z12.000
G1 X35.915 Y-45.103 Z12.000
G1 X35.139 Y-44.934 Z12.000
G1 X34.438 Y-44.561 Z12.000
G1 X33.252 Y-43.506 Z12.000
G1 X32.465 Y-43.407 Z12.000
G1 X31.186 Y-42.479 Z12.000
G1 X30.408 Y-42.322 Z12.000
G1 X29.706 Y-41.952 Z12.000
G1 X26.067 Y-38.882 Z12.000
G1 X24.600 Y-38.281 Z12.000
G1 X24.018 Y-37.741 Z12.000
G1 X21.757 Y-37.034 Z12.000
G1 X21.087 Y-36.609 Z12.000
G1 X20.302 Y-36.492 Z12.000
G1 X18.432 Y-35.026 Z12.000
G1 X17.646 Y-34.914 Z12.000
G1 X16.367 Y-33.988 Z12.000
G1 X15.590 Y-33.828 Z12.000
G1 X14.888 Y-33.457 Z12.000
G1 X10.039 Y-29.360 Z12.000
G1 X8.470 Y-27.578 Z12.000
G1 X8.118 Y-26.866 Z12.000
G1 X7.157 Y-25.603 Z12.000
G1 X6.904 Y-24.851 Z12.000
G1 X5.737 Y-23.775 Z12.000
G1 X3.911 Y-21.186 Z12.000
G1 X1.707 Y-18.907 Z12.000
G1 X1.538 Y-18.132 Z12.000
G1 X0.714 Y-16.776 Z12.000
G1 X0.250 Y-15.270 Z12.000
G1 X-0.199 Y-11.339 Z12.000
G1 X-1.041 Y-9.116 Z12.000
G1 X-1.856 Y-7.760 Z12.000
G1 X-2.013 Y-6.982 Z12.000
G1 X-3.035 Y-5.768 Z12.000
G1 X-3.249 Y-5.003 Z12.000
G1 X-3.669 Y-4.330 Z12.000
G1 X-4.225 Y-3.763 Z12.000
G1 X-5.571 Y-1.802 Z12.000
G1 X-9.939 Y2.799 Z12.000
G1 X-10.118 Y3.572 Z12.000
G1 X-10.945 Y4.926 Z12.000
G1 X-11.087 Y5.707 Z12.000
G1 X-11.706 Y7.169 Z12.000
G1 X-12.501 Y8.539 Z12.000
G1 X-12.670 Y9.314 Z12.000
G1 X-13.519 Y10.643 Z12.000
G1 X-13.821 Y12.997 Z12.000
G1 X-14.122 Y13.732 Z12.000
G1 X-14.155 Y15.312 Z12.000
G1 X-13.861 Y16.050 Z12.000
G1 X-13.716 Y18.418 Z12.000
G1 X-13.464 Y19.171 Z12.000
G1 X-13.100 Y21.523 Z12.000
G1 X-11.770 Y24.402 Z12.000
G1 X-11.630 Y25.183 Z12.000
G1 X-10.701 Y26.469 Z12.000
G1 X-10.091 Y27.929 Z12.000
G1 X-9.163 Y29.204 Z12.000
G1 X-8.572 Y30.664 Z12.000
G1 X-6.008 Y34.667 Z12.000
G1 X-5.416 Y36.134 Z12.000
G1 X-5.274 Y36.915 Z12.000
G1 X-4.348 Y38.202 Z12.000
G1 X-4.178 Y38.977 Z12.000
G1 X-3.282 Y40.275 Z12.000
G1 X-3.114 Y41.051 Z12.000
G1 X-2.752 Y41.757 Z12.000
G1 X-2.222 Y42.348 Z12.000
G1 X-0.169 Y45.741 Z12.000
G1 X0.424 Y47.208 Z12.000
G1 X0.568 Y47.988 Z12.000
G1 X1.002 Y48.653 Z12.000
G1 X1.741 Y48.944 Z12.000
G1 X2.527 Y49.052 Z12.000
G1 X5.635 Y48.436 Z12.000
G1 X7.889 Y47.689 Z12.000
G1 X8.417 Y47.096 Z12.000
G1 X12.756 Y45.169 Z12.000
G1 X15.889 Y44.686 Z12.000
G1 X16.678 Y44.774 Z12.000
G1 X18.946 Y44.098 Z12.000
G1 X20.735 Y42.536 Z12.000
G1 X21.178 Y41.877 Z12.000
G1 X23.376 Y39.588 Z12.000
G1 X24.712 Y37.625 Z12.000
G1 X25.836 Y36.509 Z12.000
G1 X25.589 Y34.951 Z12.000
G1 X23.937 Y32.276 Z12.000
G1 X22.886 Y31.090 Z12.000
G1 X20.525 Y28.974 Z12.000
G1 X17.566 Y25.253 Z12.000
G1 X17.440 Y24.470 Z12.000
G1 X17.047 Y23.780 Z12.000
G1 X15.997 Y22.589 Z12.000
G1 X14.231 Y20.998 Z12.000
G1 X11.252 Y17.289 Z12.000
G1 X10.050 Y16.260 Z12.000
G1 X9.640 Y15.581 Z12.000
G1 X7.585 Y13.163 Z12.000
G1 X4.645 Y10.508 Z12.000
G1 X2.679 Y9.176 Z12.000
G1 X0.974 Y7.520 Z12.000
G1 X-1.833 Y6.048 Z12.000
G1 X-4.076 Y5.274 Z12.000
G1 X-5.413 Y6.113 Z12.000
G1 X-5.811 Y6.799 Z12.000
G1 X-6.317 Y8.304 Z12.000
G1 X-6.537 Y10.670 Z12.000
G1 X-7.316 Y13.740 Z12.000
G1 X-7.073 Y14.496 Z12.000
G1 X-7.321 Y15.250 Z12.000
G1 X-7.532 Y17.619 Z12.000
G1 X-6.856 Y19.870 Z12.000
G1 X-3.407 Y24.217 Z12.000
G1 X-2.814 Y25.687 Z12.000
G1 X-2.276 Y26.271 Z12.000
G1 X-1.748 Y27.760 Z12.000
G1 X0.302 Y30.181 Z12.000
G1 X2.072 Y31.763 Z12.000
G1 X2.780 Y32.121 Z12.000
G1 X4.035 Y33.092 Z12.000
G1 X8.622 Y37.477 Z12.000
G1 X9.395 Y37.658 Z12.000
G1 X10.746 Y38.490 Z12.000
G1 X12.248 Y38.966 Z12.000
G1 X15.407 Y38.763 Z12.000
G1 X18.133 Y35.878 Z12.000
G1 X18.507 Y35.179 Z12.000
G1 X18.415 Y34.390 Z12.000
G1 X18.104 Y33.660 Z12.000
G1 X15.835 Y31.450 Z12.000
G1 X15.066 Y31.254 Z12.000
G1 X13.156 Y29.858 Z12.000
G1 X11.477 Y28.179 Z12.000
G1 X11.080 Y27.492 Z12.000
G1 X10.036 Y26.297 Z12.000
G1 X9.733 Y25.563 Z12.000
G1 X6.294 Y22.290 Z12.000
G1 X4.976 Y21.416 Z12.000
G1 X2.150 Y19.980 Z12.000
G1 X0.651 Y19.474 Z12.000
G1 X0.156 Y18.854 Z12.000
G1 X-0.535 Y18.463 Z12.000
G1 X-1.226 Y17.034 Z12.000
G1 X-1.594 Y15.499 Z12.000
G1 X-1.230 Y14.794 Z12.000
G1 X-1.008 Y11.633 Z12.000
G1 X1.230 Y10.818 Z12.000
G1 X1.976 Y11.090 Z12.000
G1 X2.764 Y10.994 Z12.000
G1 X4.009 Y11.971 Z12.000
G1 X4.406 Y12.658 Z12.000
G1 X4.963 Y13.223 Z12.000
G1 X5.077 Y14.799 Z12.000
G1 X5.921 Y18.672 Z12.000
G1 X6.279 Y19.381 Z12.000
G1 X8.441 Y21.701 Z12.000
G1 X21.436 Y8.735 Z12.000
G1 X27.617 Y2.568 Z12.000
G1 X27.823 Y1.801 Z12.000
G1 X27.688 Y1.019 Z12.000
G1 X27.748 Y-17.236 Z12.000
G1 X28.241 Y-20.365 Z12.000
G1 X28.710 Y-21.876 Z12.000
G1 X31.531 Y-25.702 Z12.000
G1 X32.668 Y-27.786 Z12.000
G1 X33.764 Y-31.580 Z12.000
G1 X34.827 Y-32.759 Z12.000
G1 X38.673 Y-37.809 Z12.000
G1 X25.670 Y-30.424 Z12.000
G1 X21.528 Y-28.072 Z12.000
G1 X20.310 Y-27.064 Z12.000
G1 X18.817 Y-25.225 Z12.000
G1 X18.234 Y-23.750 Z12.000
G1 X17.639 Y-21.448 Z12.000
G1 X17.287 Y-18.302 Z12.000
G1 X16.363 Y-15.273 Z12.000
G1 X16.367 Y-14.479 Z12.000
G1 X15.834 Y-12.992 Z12.000
G1 X15.461 Y-12.292 Z12.000
G1 X13.988 Y-10.423 Z12.000
G1 X12.806 Y-9.372 Z12.000
G1 X11.889 Y-8.089 Z12.000
G1 X10.739 Y-6.010 Z12.000
G1 X9.976 Y-5.791 Z12.000
G1 X8.399 Y-5.674 Z12.000
G1 X7.155 Y-6.660 Z12.000
G1 X6.758 Y-7.347 Z12.000
G1 X6.621 Y-8.129 Z12.000
G1 X6.826 Y-8.895 Z12.000
G1 X6.710 Y-9.681 Z12.000
G1 X6.900 Y-10.451 Z12.000
G1 X7.791 Y-12.659 Z12.000
G1 X8.800 Y-13.882 Z12.000
G1 X11.586 Y-16.706 Z12.000
G1 X14.373 Y-20.558 Z12.000
G1 X1.328 Y-29.895 Z12.000
G1 X-1.644 Y-31.011 Z12.000
G1 X-4.746 Y-31.654 Z12.000
G1 X-6.197 Y-32.283 Z12.000
G1 X-7.557 Y-33.095 Z12.000
G1 X-8.335 Y-33.254 Z12.000
G1 X-9.546 Y-34.280 Z12.000
G1 X-11.642 Y-35.397 Z12.000
G1 X-13.365 Y-37.037 Z12.000
G1 X-15.323 Y-38.380 Z12.000
G1 X-17.317 Y-40.844 Z12.000
G1 X-19.676 Y-42.961 Z12.000
G1 X-20.575 Y-45.156 Z12.000
G1 X-20.676 Y-45.943 Z12.000
G1 X-21.189 Y-47.445 Z12.000
G1 X-21.586 Y-48.133 Z12.000
G1 X-22.927 Y-48.968 Z12.000
G1 X-23.705 Y-49.123 Z12.000
G1 X-25.235 Y-48.728 Z12.000
G1 X-28.403 Y-48.610 Z12.000
G1 X-30.739 Y-48.176 Z12.000
G1 X-33.743 Y-47.178 Z12.000
G1 X-34.294 Y-46.607 Z12.000
G1 X-37.920 Y-45.026 Z12.000
G1 X-39.220 Y-44.129 Z12.000
G1 X-42.139 Y-42.905 Z12.000
G1 X-44.570 Y-40.870 Z12.000
G1 X-45.352 Y-40.734 Z12.000
G1 X-48.217 Y-39.372 Z12.000
G1 X-48.679 Y-38.727 Z12.000
G1 X-48.835 Y-37.949 Z12.000
G1 X-48.591 Y-32.403 Z12.000
G1 X-48.008 Y-29.289 Z12.000
G1 X-47.690 Y-28.561 Z12.000
G1 X-47.137 Y-27.992 Z12.000
G1 X-46.787 Y-27.280 Z12.000
G1 X-46.091 Y-26.898 Z12.000
G1 X-45.541 Y-26.326 Z12.000
G1 X-45.159 Y-25.630 Z12.000
G1 X-43.618 Y-23.819 Z12.000
G1 X-42.965 Y-23.369 Z12.000
G1 X-39.525 Y-20.076 Z12.000
G1 X-38.204 Y-19.206 Z12.000
G1 X-37.711 Y-18.584 Z12.000
G1 X-34.792 Y-15.898 Z12.000
G1 X-33.470 Y-15.029 Z12.000
G1 X-32.041 Y-14.346 Z12.000
G1 X-30.538 Y-13.847 Z12.000
G1 X-29.750 Y-13.749 Z12.000
G1 X-29.060 Y-13.358 Z12.000
G1 X-25.956 Y-12.733 Z12.000
G1 X-23.759 Y-11.832 Z12.000
G1 X-20.660 Y-11.165 Z12.000
G1 X-18.463 Y-10.265 Z12.000
G1 X-16.910 Y-9.958 Z12.000
G1 X-16.116 Y-9.971 Z12.000
G1 X-15.381 Y-9.672 Z12.000
G1 X-13.799 Y-9.629 Z12.000
G1 X-12.248 Y-9.940 Z12.000
G1 X-11.279 Y-11.197 Z12.000
G1 X-10.214 Y-13.316 Z12.000
G1 X-9.906 Y-15.671 Z12.000
G1 X-10.145 Y-22.011 Z12.000
G1 X-10.467 Y-23.560 Z12.000
G1 X-10.174 Y-24.297 Z12.000
G1 X-11.076 Y-27.341 Z12.000
G1 X-11.494 Y-28.016 Z12.000
G1 X-12.121 Y-28.502 Z12.000
G1 X-13.059 Y-29.781 Z12.000
G1 X-13.722 Y-30.218 Z12.000
G1 X-17.454 Y-31.559 Z12.000
G1 X-19.689 Y-33.802 Z12.000
G1 X-23.360 Y-35.291 Z12.000
G1 X-24.141 Y-35.152 Z12.000
G1 X-27.288 Y-35.542 Z12.000
G1 X-28.031 Y-35.822 Z12.000
G1 X-33.448 Y-37.050 Z12.000
G1 X-34.242 Y-37.025 Z12.000
G1 X-34.971 Y-37.337 Z12.000
G1 X-36.528 Y-37.646 Z12.000
G1 X-38.109 Y-37.754 Z12.000
G1 X-38.893 Y-37.633 Z12.000
G1 X-41.328 Y-35.620 Z12.000
G1 X-42.369 Y-34.426 Z12.000
G1 X-42.564 Y-33.656 Z12.000
G1 X-42.388 Y-32.882 Z12.000
G1 X-41.996 Y-32.192 Z12.000
G1 X-41.865 Y-31.410 Z12.000
G1 X-41.441 Y-30.739 Z12.000
G1 X-40.800 Y-30.270 Z12.000
G1 X-40.380 Y-29.596 Z12.000
G1 X-37.434 Y-26.948 Z12.000
G1 X-35.474 Y-25.607 Z12.000
G1 X-32.625 Y-22.851 Z12.000
G1 X-31.852 Y-22.670 Z12.000
G1 X-31.190 Y-22.232 Z12.000
G1 X-29.475 Y-20.581 Z12.000
G1 X-26.867 Y-18.782 Z12.000
G1 X-26.128 Y-18.491 Z12.000
G1 X-24.543 Y-18.424 Z12.000
G1 X-16.613 Y-18.699 Z12.000
G1 X-15.852 Y-18.927 Z12.000
G1 X-15.360 Y-19.549 Z12.000
G1 X-14.868 Y-21.055 Z12.000
G1 X-15.809 Y-23.240 Z12.000
G1 X-17.472 Y-24.930 Z12.000
G1 X-21.205 Y-26.263 Z12.000
G1 X-24.305 Y-26.926 Z12.000
G1 X-26.499 Y-27.829 Z12.000
G1 X-29.598 Y-28.501 Z12.000
G1 X-31.921 Y-30.659 Z12.000
G1 X-34.534 Y-32.446 Z12.000
G1 X-35.954 Y-33.146 Z12.000
G1 X-46.826 Y-48.415 Z12.000
G1 X-47.438 Y-48.921 Z12.000
G1 X-49.626 Y-49.844 Z12.000
G1 X-49.902 Y-48.281 Z12.000
G0 X-44.710 Y-15.078 Z20.000
G0 X-44.710 Y-15.078 Z14.000
G1 X-42.208 Y-14.637 Z13.972 F500
G1 X-42.323 Y-14.209 Z13.944
G1 X-42.510 Y-13.808 Z13.917
G1 X-42.764 Y-13.445 Z13.889
G1 X-43.077 Y-13.132 Z13.861
G1 X-43.440 Y-12.878 Z13.833
G1 X-43.841 Y-12.691 Z13.806
G1 X-44.269 Y-12.577 Z13.778
G1 X-44.710 Y-12.538 Z13.750
G1 X-45.151 Y-12.577 Z13.722
G1 X-45.578 Y-12.691 Z13.694
G1 X-45.980 Y-12.878 Z13.667
G1 X-46.342 Y-13.132 Z13.639
G1 X-46.655 Y-13.445 Z13.611
G1 X-46.909 Y-13.808 Z13.583
G1 X-47.096 Y-14.209 Z13.556
G1 X-47.211 Y-14.637 Z13.528
G1 X-47.250 Y-15.078 Z13.500
G1 X-47.211 Y-15.519 Z13.472
G1 X-47.096 Y-15.947 Z13.444
G1 X-46.909 Y-16.348 Z13.417
G1 X-46.655 Y-16.711 Z13.389
G1 X-46.342 Y-17.024 Z13.361
G1 X-45.980 Y-17.278 Z13.333
G1 X-45.578 Y-17.465 Z13.306
G1 X-45.151 Y-17.579 Z13.278
G1 X-44.710 Y-17.618 Z13.250
G1 X-44.269 Y-17.579 Z13.222
G1 X-43.841 Y-17.465 Z13.194
G1 X-43.440 Y-17.278 Z13.167
G1 X-43.077 Y-17.024 Z13.139
G1 X-42.764 Y-16.711 Z13.111
G1 X-42.510 Y-16.348 Z13.083
G1 X-42.323 Y-15.947 Z13.056
G1 X-42.208 Y-15.519 Z13.028
G1 X-42.170 Y-15.078 Z13.000
G1 X-42.208 Y-14.637 Z12.972
G1 X-42.323 Y-14.209 Z12.944
G1 X-42.510 Y-13.808 Z12.917
G1 X-42.764 Y-13.445 Z12.889
G1 X-43.077 Y-13.132 Z12.861
G1 X-43.440 Y-12.878 Z12.833
G1 X-43.841 Y-12.691 Z12.806
G1 X-44.269 Y-12.577 Z12.778
G1 X-44.710 Y-12.538 Z12.750
G1 X-45.151 Y-12.577 Z12.722
G1 X-45.578 Y-12.691 Z12.694
G1 X-45.980 Y-12.878 Z12.667
G1 X-46.342 Y-13.132 Z12.639
G1 X-46.655 Y-13.445 Z12.611
G1 X-46.909 Y-13.808 Z12.583
G1 X-47.096 Y-14.209 Z12.556
G1 X-47.211 Y-14.637 Z12.528
G1 X-47.250 Y-15.078 Z12.500
G1 X-47.211 Y-15.519 Z12.472
G1 X-47.096 Y-15.947 Z12.444
G1 X-46.909 Y-16.348 Z12.417
G1 X-46.655 Y-16.711 Z12.389
G1 X-46.342 Y-17.024 Z12.361
G1 X-45.980 Y-17.278 Z12.333
G1 X-45.578 Y-17.465 Z12.306
G1 X-45.151 Y-17.579 Z12.278
G1 X-44.710 Y-17.618 Z12.250
G1 X-44.269 Y-17.579 Z12.222
G1 X-43.841 Y-17.465 Z12.194
G1 X-43.440 Y-17.278 Z12.167
G1 X-43.077 Y-17.024 Z12.139
G1 X-42.764 Y-16.711 Z12.111
G1 X-42.510 Y-16.348 Z12.083
G1 X-42.323 Y-15.947 Z12.056
G1 X-42.208 Y-15.519 Z12.028
G1 X-42.170 Y-15.078 Z12.000
G1 X-44.710 Y-15.078 Z12.000
G1 X-45.853 Y-12.116 Z12.000 F1500
G1 X-46.524 Y-9.020 Z12.000
G1 X-47.438 Y-6.830 Z12.000
G1 X-48.124 Y-3.734 Z12.000
G1 X-48.764 Y-2.289 Z12.000
G1 X-48.871 Y-0.705 Z12.000
G1 X-48.538 Y11.193 Z12.000
G1 X-48.115 Y13.530 Z12.000
G1 X-47.776 Y14.247 Z12.000
G1 X-47.233 Y14.826 Z12.000
G1 X-47.295 Y15.617 Z12.000
G1 X-46.561 Y17.876 Z12.000
G1 X-45.653 Y19.178 Z12.000
G1 X-45.482 Y19.953 Z12.000
G1 X-44.143 Y22.829 Z12.000
G1 X-43.499 Y23.294 Z12.000
G1 X-43.061 Y23.956 Z12.000
G1 X-42.431 Y24.439 Z12.000
G1 X-40.736 Y27.112 Z12.000
G1 X-40.103 Y31.004 Z12.000
G1 X-39.796 Y31.736 Z12.000
G1 X-40.013 Y32.500 Z12.000
G1 X-39.869 Y34.081 Z12.000
G1 X-40.099 Y34.841 Z12.000
G1 X-39.660 Y37.172 Z12.000
G1 X-39.859 Y38.745 Z12.000
G1 X-39.701 Y39.523 Z12.000
G1 X-39.604 Y44.283 Z12.000
G1 X-39.172 Y46.618 Z12.000
G1 X-38.646 Y48.107 Z12.000
G1 X-38.077 Y48.660 Z12.000
G1 X-37.317 Y48.890 Z12.000
G1 X-35.734 Y48.977 Z12.000
G1 X-33.479 Y48.230 Z12.000
G1 X-32.816 Y47.794 Z12.000
G1 X-31.236 Y47.662 Z12.000
G1 X-30.543 Y47.274 Z12.000
G1 X-29.769 Y47.097 Z12.000
G1 X-26.904 Y45.739 Z12.000
G1 X-26.436 Y45.098 Z12.000
G1 X-25.775 Y44.657 Z12.000
G1 X-24.989 Y44.552 Z12.000
G1 X-24.314 Y44.134 Z12.000
G1 X-19.733 Y42.856 Z12.000
G1 X-16.374 Y40.750 Z12.000
G1 X-14.563 Y39.213 Z12.000
G1 X-14.498 Y38.422 Z12.000
G1 X-14.806 Y36.867 Z12.000
G1 X-15.272 Y36.224 Z12.000
G1 X-15.875 Y35.708 Z12.000
G1 X-17.821 Y33.204 Z12.000
G1 X-20.748 Y30.535 Z12.000
G1 X-23.194 Y27.419 Z12.000
G1 X-23.319 Y26.635 Z12.000
G1 X-24.681 Y23.772 Z12.000
G1 X-25.155 Y20.637 Z12.000
G1 X-25.063 Y19.849 Z12.000
G1 X-25.333 Y19.102 Z12.000
G1 X-25.803 Y15.964 Z12.000
G1 X-26.301 Y15.346 Z12.000
G1 X-26.867 Y13.863 Z12.000
G1 X-28.399 Y12.046 Z12.000
G1 X-29.051 Y11.592 Z12.000
G1 X-31.333 Y9.386 Z12.000
G1 X-34.280 Y5.655 Z12.000
G1 X-35.475 Y4.619 Z12.000
G1 X-35.881 Y3.937 Z12.000
G1 X-37.920 Y1.505 Z12.000
G1 X-41.420 Y-1.714 Z12.000
G1 X-42.119 Y-2.089 Z12.000
G1 X-42.591 Y-2.727 Z12.000
G1 X-42.484 Y-4.299 Z12.000
G1 X-40.988 Y-7.059 Z12.000
G1 X-40.329 Y-7.502 Z12.000
G1 X-39.294 Y-8.705 Z12.000
G1 X-37.016 Y-8.024 Z12.000
G1 X-36.340 Y-7.608 Z12.000
G1 X-33.498 Y-3.802 Z12.000
G1 X-29.000 Y0.670 Z12.000
G1 X-27.151 Y3.242 Z12.000
G1 X-25.987 Y4.312 Z12.000
G1 X-25.086 Y5.607 Z12.000
G1 X-23.969 Y7.703 Z12.000
G1 X-22.009 Y10.195 Z12.000
G1 X-21.918 Y10.984 Z12.000
G1 X-21.556 Y11.690 Z12.000
G1 X-20.984 Y13.998 Z12.000
G1 X-18.264 Y26.401 Z12.000
G1 X-28.305 Y32.547 Z12.000
G1 X-29.659 Y33.376 Z12.000
G1 X-29.845 Y34.148 Z12.000
G1 X-29.761 Y36.523 Z12.000
G1 X-30.037 Y38.086 Z12.000
G1 X-29.243 Y38.086 Z12.000
G1 X-28.650 Y38.614 Z12.000
G1 X-26.385 Y39.334 Z12.000
G1 X-25.777 Y38.823 Z12.000
G1 X-25.380 Y38.136 Z12.000
G1 X-20.368 Y50.539 Z12.000
G1 X-19.971 Y49.851 Z12.000
G1 X-18.479 Y49.308 Z12.000
G1 X-16.918 Y49.069 Z12.000
G1 X-7.418 Y48.465 Z12.000
G1 X-7.004 Y46.120 Z12.000
G1 X-7.142 Y45.338 Z12.000
G0 X-31.480 Y26.197 Z20.000
G0 X-31.480 Y26.197 Z14.000
G1 X-28.979 Y26.638 Z13.972 F500
G1 X-29.094 Y27.066 Z13.944
G1 X-29.281 Y27.467 Z13.917
G1 X-29.535 Y27.830 Z13.889
G1 X-29.848 Y28.143 Z13.861
G1 X-30.210 Y28.397 Z13.833
G1 X-30.612 Y28.584 Z13.806
G1 X-31.039 Y28.698 Z13.778
G1 X-31.480 Y28.737 Z13.750
G1 X-31.921 Y28.698 Z13.722
G1 X-32.349 Y28.584 Z13.694
G1 X-32.750 Y28.397 Z13.667
G1 X-33.113 Y28.143 Z13.639
G1 X-33.426 Y27.830 Z13.611
G1 X-33.680 Y27.467 Z13.583
G1 X-33.867 Y27.066 Z13.556
G1 X-33.982 Y26.638 Z13.528
G1 X-34.020 Y26.197 Z13.500
G1 X-33.982 Y25.756 Z13.472
G1 X-33.867 Y25.328 Z13.444
G1 X-33.680 Y24.927 Z13.417
G1 X-33.426 Y24.564 Z13.389
G1 X-33.113 Y24.251 Z13.361
G1 X-32.750 Y23.997 Z13.333
G1 X-32.349 Y23.810 Z13.306
G1 X-31.921 Y23.696 Z13.278
G1 X-31.480 Y23.657 Z13.250
G1 X-31.039 Y23.696 Z13.222
G1 X-30.612 Y23.810 Z13.194
G1 X-30.210 Y23.997 Z13.167
G1 X-29.848 Y24.251 Z13.139
G1 X-29.535 Y24.564 Z13.111
G1 X-29.281 Y24.927 Z13.083
G1 X-29.094 Y25.328 Z13.056
G1 X-28.979 Y25.756 Z13.028
G1 X-28.940 Y26.197 Z13.000
G1 X-28.979 Y26.638 Z12.972
G1 X-29.094 Y27.066 Z12.944
G1 X-29.281 Y27.467 Z12.917
G1 X-29.535 Y27.830 Z12.889
G1 X-29.848 Y28.143 Z12.861
G1 X-30.210 Y28.397 Z12.833
G1 X-30.612 Y28.584 Z12.806
G1 X-31.039 Y28.698 Z12.778
G1 X-31.480 Y28.737 Z12.750
G1 X-31.921 Y28.698 Z12.722
G1 X-32.349 Y28.584 Z12.694
G1 X-32.750 Y28.397 Z12.667
G1 X-33.113 Y28.143 Z12.639
G1 X-33.426 Y27.830 Z12.611
G1 X-33.680 Y27.467 Z12.583
G1 X-33.867 Y27.066 Z12.556
G1 X-33.982 Y26.638 Z12.528
G1 X-34.020 Y26.197 Z12.500
G1 X-33.982 Y25.756 Z12.472
G1 X-33.867 Y25.328 Z12.444
G1 X-33.680 Y24.927 Z12.417
G1 X-33.426 Y24.564 Z12.389
G1 X-33.113 Y24.251 Z12.361
G1 X-32.750 Y23.997 Z12.333
G1 X-32.349 Y23.810 Z12.306
G1 X-31.921 Y23.696 Z12.278
G1 X-31.480 Y23.657 Z12.250
G1 X-31.039 Y23.696 Z12.222
G1 X-30.612 Y23.810 Z12.194
G1 X-30.210 Y23.997 Z12.167
G1 X-29.848 Y24.251 Z12.139
G1 X-29.535 Y24.564 Z12.111
G1 X-29.281 Y24.927 Z12.083
G1 X-29.094 Y25.328 Z12.056
G1 X-28.979 Y25.756 Z12.028
G1 X-28.940 Y26.197 Z12.000
G1 X-31.480 Y26.197 Z12.000
G1 X-32.104 Y25.706 Z12.000 F1500
G1 X-33.135 Y24.503 Z12.000
G1 X-33.999 Y23.175 Z12.000
G1 X-35.071 Y21.054 Z12.000
G1 X-35.234 Y20.277 Z12.000
G1 X-38.062 Y12.862 Z12.000
G1 X-38.778 Y11.448 Z12.000
G0 X-21.955 Y-1.849 Z20.000
G0 X-21.955 Y-1.849 Z14.000
G1 X-19.454 Y-1.408 Z13.972 F500
G1 X-19.569 Y-0.980 Z13.944
G1 X-19.756 Y-0.579 Z13.917
G1 X-20.010 Y-0.216 Z13.889
G1 X-20.323 Y0.097 Z13.861
G1 X-20.685 Y0.351 Z13.833
G1 X-21.087 Y0.538 Z13.806
G1 X-21.514 Y0.653 Z13.778
G1 X-21.955 Y0.691 Z13.750
G1 X-22.396 Y0.653 Z13.722
G1 X-22.824 Y0.538 Z13.694
G1 X-23.225 Y0.351 Z13.667
G1 X-23.588 Y0.097 Z13.639
G1 X-23.901 Y-0.216 Z13.611
G1 X-24.155 Y-0.579 Z13.583
G1 X-24.342 Y-0.980 Z13.556
G1 X-24.457 Y-1.408 Z13.528
G1 X-24.495 Y-1.849 Z13.500
G1 X-24.457 Y-2.290 Z13.472
G1 X-24.342 Y-2.718 Z13.444
G1 X-24.155 Y-3.119 Z13.417
G1 X-23.901 Y-3.481 Z13.389
G1 X-23.588 Y-3.795 Z13.361
G1 X-23.225 Y-4.049 Z13.333
G1 X-22.824 Y-4.236 Z13.306
G1 X-22.396 Y-4.350 Z13.278
G1 X-21.955 Y-4.389 Z13.250
G1 X-21.514 Y-4.350 Z13.222
G1 X-21.087 Y-4.236 Z13.194
G1 X-20.685 Y-4.049 Z13.167
G1 X-20.323 Y-3.795 Z13.139
G1 X-20.010 Y-3.481 Z13.111
G1 X-19.756 Y-3.119 Z13.083
G1 X-19.569 Y-2.718 Z13.056
G1 X-19.454 Y-2.290 Z13.028
G1 X-19.415 Y-1.849 Z13.000
G1 X-19.454 Y-1.408 Z12.972
G1 X-19.569 Y-0.980 Z12.944
G1 X-19.756 Y-0.579 Z12.917
G1 X-20.010 Y-0.216 Z12.889
G1 X-20.323 Y0.097 Z12.861
G1 X-20.685 Y0.351 Z12.833
G1 X-21.087 Y0.538 Z12.806
G1 X-21.514 Y0.653 Z12.778
G1 X-21.955 Y0.691 Z12.750
G1 X-22.396 Y0.653 Z12.722
G1 X-22.824 Y0.538 Z12.694
G1 X-23.225 Y0.351 Z12.667
G1 X-23.588 Y0.097 Z12.639
G1 X-23.901 Y-0.216 Z12.611
G1 X-24.155 Y-0.579 Z12.583
G1 X-24.342 Y-0.980 Z12.556
G1 X-24.457 Y-1.408 Z12.528
G1 X-24.495 Y-1.849 Z12.500
G1 X-24.457 Y-2.290 Z12.472
G1 X-24.342 Y-2.718 Z12.444
G1 X-24.155 Y-3.119 Z12.417
G1 X-23.901 Y-3.481 Z12.389
G1 X-23.588 Y-3.795 Z12.361
G1 X-23.225 Y-4.049 Z12.333
G1 X-22.824 Y-4.236 Z12.306
G1 X-22.396 Y-4.350 Z12.278
G1 X-21.955 Y-4.389 Z12.250
G1 X-21.514 Y-4.350 Z12.222
G1 X-21.087 Y-4.236 Z12.194
G1 X-20.685 Y-4.049 Z12.167
G1 X-20.323 Y-3.795 Z12.139
G1 X-20.010 Y-3.481 Z12.111
G1 X-19.756 Y-3.119 Z12.083
G1 X-19.569 Y-2.718 Z12.056
G1 X-19.454 Y-2.290 Z12.028
G1 X-19.415 Y-1.849 Z12.000
G1 X-21.955 Y-1.849 Z12.000
G1 X-21.167 Y-1.757 Z12.000 F1500
G1 X-16.797 Y0.120 Z12.000
G0 X13.499 Y0.268 Z20.000
G0 X13.499 Y0.268 Z14.000
G1 X16.000 Y0.709 Z13.972 F500
G1 X15.886 Y1.137 Z13.944
G1 X15.698 Y1.538 Z13.917
G1 X15.444 Y1.901 Z13.889
G1 X15.131 Y2.214 Z13.861
G1 X14.769 Y2.468 Z13.833
G1 X14.367 Y2.655 Z13.806
G1 X13.940 Y2.769 Z13.778
G1 X13.499 Y2.808 Z13.750
G1 X13.058 Y2.769 Z13.722
G1 X12.630 Y2.655 Z13.694
G1 X12.229 Y2.468 Z13.667
G1 X11.866 Y2.214 Z13.639
G1 X11.553 Y1.901 Z13.611
G1 X11.299 Y1.538 Z13.583
G1 X11.112 Y1.137 Z13.556
G1 X10.997 Y0.709 Z13.528
G1 X10.959 Y0.268 Z13.500
G1 X10.997 Y-0.173 Z13.472
G1 X11.112 Y-0.601 Z13.444
G1 X11.299 Y-1.002 Z13.417
G1 X11.553 Y-1.365 Z13.389
G1 X11.866 Y-1.678 Z13.361
G1 X12.229 Y-1.932 Z13.333
G1 X12.630 Y-2.119 Z13.306
G1 X13.058 Y-2.234 Z13.278
G1 X13.499 Y-2.272 Z13.250
G1 X13.940 Y-2.234 Z13.222
G1 X14.367 Y-2.119 Z13.194
G1 X14.769 Y-1.932 Z13.167
G1 X15.131 Y-1.678 Z13.139
G1 X15.444 Y-1.365 Z13.111
G1 X15.698 Y-1.002 Z13.083
G1 X15.886 Y-0.601 Z13.056
G1 X16.000 Y-0.173 Z13.028
G1 X16.039 Y0.268 Z13.000
G1 X16.000 Y0.709 Z12.972
G1 X15.886 Y1.137 Z12.944
G1 X15.698 Y1.538 Z12.917
G1 X15.444 Y1.901 Z12.889
G1 X15.131 Y2.214 Z12.861
G1 X14.769 Y2.468 Z12.833
G1 X14.367 Y2.655 Z12.806
G1 X13.940 Y2.769 Z12.778
G1 X13.499 Y2.808 Z12.750
G1 X13.058 Y2.769 Z12.722
G1 X12.630 Y2.655 Z12.694
G1 X12.229 Y2.468 Z12.667
G1 X11.866 Y2.214 Z12.639
G1 X11.553 Y1.901 Z12.611
G1 X11.299 Y1.538 Z12.583
G1 X11.112 Y1.137 Z12.556
G1 X10.997 Y0.709 Z12.528
G1 X10.959 Y0.268 Z12.500
G1 X10.997 Y-0.173 Z12.472
G1 X11.112 Y-0.601 Z12.444
G1 X11.299 Y-1.002 Z12.417
G1 X11.553 Y-1.365 Z12.389
G1 X11.866 Y-1.678 Z12.361
G1 X12.229 Y-1.932 Z12.333
G1 X12.630 Y-2.119 Z12.306
G1 X13.058 Y-2.234 Z12.278
G1 X13.499 Y-2.272 Z12.250
G1 X13.940 Y-2.234 Z12.222
G1 X14.367 Y-2.119 Z12.194
G1 X14.769 Y-1.932 Z12.167
G1 X15.131 Y-1.678 Z12.139
G1 X15.444 Y-1.365 Z12.111
G1 X15.698 Y-1.002 Z12.083
G1 X15.886 Y-0.601 Z12.056
G1 X16.000 Y-0.173 Z12.028
G1 X16.039 Y0.268 Z12.000
G1 X13.499 Y0.268 Z12.000
G1 X15.086 Y0.276 Z12.000 F1500
G1 X18.005 Y-0.898 Z12.000
G1 X20.906 Y-3.595 Z12.000
G1 X32.020 Y8.735 Z12.000
G1 X31.896 Y11.113 Z12.000
G1 X31.342 Y12.598 Z12.000
G1 X31.154 Y15.749 Z12.000
G1 X31.668 Y16.354 Z12.000
G1 X33.439 Y19.901 Z12.000
G1 X33.976 Y20.485 Z12.000
G1 X39.334 Y28.359 Z12.000
G1 X29.903 Y43.130 Z12.000
G1 X29.691 Y47.888 Z12.000
G1 X30.056 Y48.593 Z12.000
G1 X30.158 Y49.380 Z12.000
G1 X30.675 Y49.982 Z12.000
G1 X33.057 Y49.995 Z12.000
G1 X23.024 Y50.539 Z12.000
G0 X47.895 Y10.322 Z20.000
G0 X47.895 Y10.322 Z14.000
G1 X50.396 Y10.763 Z13.972 F500
G1 X50.281 Y11.191 Z13.944
G1 X50.094 Y11.592 Z13.917
G1 X49.840 Y11.955 Z13.889
G1 X49.527 Y12.268 Z13.861
G1 X49.165 Y12.522 Z13.833
G1 X48.763 Y12.709 Z13.806
G1 X48.336 Y12.823 Z13.778
G1 X47.895 Y12.862 Z13.750
G1 X47.454 Y12.823 Z13.722
G1 X47.026 Y12.709 Z13.694
G1 X46.625 Y12.522 Z13.667
G1 X46.262 Y12.268 Z13.639
G1 X45.949 Y11.955 Z13.611
G1 X45.695 Y11.592 Z13.583
G1 X45.508 Y11.191 Z13.556
G1 X45.393 Y10.763 Z13.528
G1 X45.355 Y10.322 Z13.500
G1 X45.393 Y9.881 Z13.472
G1 X45.508 Y9.453 Z13.444
G1 X45.695 Y9.052 Z13.417
G1 X45.949 Y8.689 Z13.389
G1 X46.262 Y8.376 Z13.361
G1 X46.625 Y8.122 Z13.333
G1 X47.026 Y7.935 Z13.306
G1 X47.454 Y7.821 Z13.278
G1 X47.895 Y7.782 Z13.250
G1 X48.336 Y7.821 Z13.222
G1 X48.763 Y7.935 Z13.194
G1 X49.165 Y8.122 Z13.167
G1 X49.527 Y8.376 Z13.139
G1 X49.840 Y8.689 Z13.111
G1 X50.094 Y9.052 Z13.083
G1 X50.281 Y9.453 Z13.056
G1 X50.396 Y9.881 Z13.028
G1 X50.435 Y10.322 Z13.000
G1 X50.396 Y10.763 Z12.972
G1 X50.281 Y11.191 Z12.944
G1 X50.094 Y11.592 Z12.917
G1 X49.840 Y11.955 Z12.889
G1 X49.527 Y12.268 Z12.861
G1 X49.165 Y12.522 Z12.833
G1 X48.763 Y12.709 Z12.806
G1 X48.336 Y12.823 Z12.778
G1 X47.895 Y12.862 Z12.750
G1 X47.454 Y12.823 Z12.722
G1 X47.026 Y12.709 Z12.694
G1 X46.625 Y12.522 Z12.667
G1 X46.262 Y12.268 Z12.639
G1 X45.949 Y11.955 Z12.611
G1 X45.695 Y11.592 Z12.583
G1 X45.508 Y11.191 Z12.556
G1 X45.393 Y10.763 Z12.528
G1 X45.355 Y10.322 Z12.500
G1 X45.393 Y9.881 Z12.472
G1 X45.508 Y9.453 Z12.444
G1 X45.695 Y9.052 Z12.417
G1 X45.949 Y8.689 Z12.389
G1 X46.262 Y8.376 Z12.361
G1 X46.625 Y8.122 Z12.333
G1 X47.026 Y7.935 Z12.306
G1 X47.454 Y7.821 Z12.278
G1 X47.895 Y7.782 Z12.250
G1 X48.336 Y7.821 Z12.222
G1 X48.763 Y7.935 Z12.194
G1 X49.165 Y8.122 Z12.167
G1 X49.527 Y8.376 Z12.139
G1 X49.840 Y8.689 Z12.111
G1 X50.094 Y9.052 Z12.083
G1 X50.281 Y9.453 Z12.056
G1 X50.396 Y9.881 Z12.028
G1 X50.435 Y10.322 Z12.000
G1 X47.895 Y10.322 Z12.000
G1 X48.312 Y9.647 Z12.000 F1500
G1 X48.541 Y8.887 Z12.000
G1 X48.929 Y7.354 Z12.000
G1 X49.061 Y5.777 Z12.000
G1 X49.031 Y3.400 Z12.000
G1 X48.675 Y1.055 Z12.000
G1 X48.357 Y0.328 Z12.000
G1 X48.015 Y-1.222 Z12.000
G1 X48.205 Y-1.993 Z12.000
G1 X48.233 Y-13.102 Z12.000
G1 X49.836 Y-24.090 Z12.000
G0 X29.903 Y-50.003 Z20.000
G0 X29.903 Y-50.003 Z14.000
G1 X32.404 Y-49.562 Z13.972 F500
G1 X32.290 Y-49.134 Z13.944
G1 X32.103 Y-48.733 Z13.917
G1 X31.849 Y-48.370 Z13.889
G1 X31.536 Y-48.057 Z13.861
G1 X31.173 Y-47.803 Z13.833
G1 X30.772 Y-47.616 Z13.806
G1 X30.344 Y-47.502 Z13.778
G1 X29.903 Y-47.463 Z13.750
G1 X29.462 Y-47.502 Z13.722
G1 X29.034 Y-47.616 Z13.694
G1 X28.633 Y-47.803 Z13.667
G1 X28.270 Y-48.057 Z13.639
G1 X27.957 Y-48.370 Z13.611
G1 X27.703 Y-48.733 Z13.583
G1 X27.516 Y-49.134 Z13.556
G1 X27.401 Y-49.562 Z13.528
G1 X27.363 Y-50.003 Z13.500
G1 X27.401 Y-50.444 Z13.472
G1 X27.516 Y-50.872 Z13.444
G1 X27.703 Y-51.273 Z13.417
G1 X27.957 Y-51.636 Z13.389
G1 X28.270 Y-51.949 Z13.361
G1 X28.633 Y-52.203 Z13.333
G1 X29.034 Y-52.390 Z13.306
G1 X29.462 Y-52.504 Z13.278
G1 X29.903 Y-52.543 Z13.250
G1 X30.344 Y-52.504 Z13.222
G1 X30.772 Y-52.390 Z13.194
G1 X31.173 Y-52.203 Z13.167
G1 X31.536 Y-51.949 Z13.139
G1 X31.849 Y-51.636 Z13.111
G1 X32.103 Y-51.273 Z13.083
G1 X32.290 Y-50.872 Z13.056
G1 X32.404 Y-50.444 Z13.028
G1 X32.443 Y-50.003 Z13.000
G1 X32.404 Y-49.562 Z12.972
G1 X32.290 Y-49.134 Z12.944
G1 X32.103 Y-48.733 Z12.917
G1 X31.849 Y-48.370 Z12.889
G1 X31.536 Y-48.057 Z12.861
G1 X31.173 Y-47.803 Z12.833
G1 X30.772 Y-47.616 Z12.806
G1 X30.344 Y-47.502 Z12.778
G1 X29.903 Y-47.463 Z12.750
G1 X29.462 Y-47.502 Z12.722
G1 X29.034 Y-47.616 Z12.694
G1 X28.633 Y-47.803 Z12.667
G1 X28.270 Y-48.057 Z12.639
G1 X27.957 Y-48.370 Z12.611
G1 X27.703 Y-48.733 Z12.583
G1 X27.516 Y-49.134 Z12.556
G1 X27.401 Y-49.562 Z12.528
G1 X27.363 Y-50.003 Z12.500
G1 X27.401 Y-50.444 Z12.472
G1 X27.516 Y-50.872 Z12.444
G1 X27.703 Y-51.273 Z12.417
G1 X27.957 Y-51.636 Z12.389
G1 X28.270 Y-51.949 Z12.361
G1 X28.633 Y-52.203 Z12.333
G1 X29.034 Y-52.390 Z12.306
G1 X29.462 Y-52.504 Z12.278
G1 X29.903 Y-52.543 Z12.250
G1 X30.344 Y-52.504 Z12.222
G1 X30.772 Y-52.390 Z12.194
G1 X31.173 Y-52.203 Z12.167
G1 X31.536 Y-51.949 Z12.139
G1 X31.849 Y-51.636 Z12.111
G1 X32.103 Y-51.273 Z12.083
G1 X32.290 Y-50.872 Z12.056
G1 X32.404 Y-50.444 Z12.028
G1 X32.443 Y-50.003 Z12.000
G1 X29.903 Y-50.003 Z12.000
G1 X25.140 Y-50.003 Z12.000 F1500
G1 X22.175 Y-48.891 Z12.000
G1 X17.567 Y-47.722 Z12.000
G1 X16.878 Y-47.327 Z12.000
G1 X16.088 Y-47.256 Z12.000
G1 X13.795 Y-46.616 Z12.000
G1 X13.112 Y-46.211 Z12.000
G1 X12.322 Y-46.139 Z12.000
G1 X10.029 Y-45.502 Z12.000
G1 X9.235 Y-45.494 Z12.000
G1 X6.723 Y-43.559 Z12.000
G1 X5.935 Y-43.466 Z12.000
G1 X5.235 Y-43.092 Z12.000
G1 X4.771 Y-42.448 Z12.000
G1 X2.005 Y-40.910 Z12.000
G1 X1.234 Y-40.720 Z12.000
G1 X-0.351 Y-40.801 Z12.000
G1 X-1.655 Y-41.687 Z12.000
G1 X-7.185 Y-44.797 Z12.000
G1 X-8.397 Y-45.813 Z12.000
G1 X-12.273 Y-49.786 Z12.000
G1 X-13.040 Y-49.990 Z12.000
G1 X0.799 Y-49.474 Z12.000
G0 X-47.355 Y33.076 Z20.000
G0 X-47.355 Y33.076 Z14.000
G1 X-44.854 Y33.517 Z13.972 F500
G1 X-44.969 Y33.945 Z13.944
G1 X-45.156 Y34.346 Z13.917
G1 X-45.410 Y34.709 Z13.889
G1 X-45.723 Y35.022 Z13.861
G1 X-46.085 Y35.276 Z13.833
G1 X-46.487 Y35.463 Z13.806
G1 X-46.914 Y35.578 Z13.778
G1 X-47.355 Y35.616 Z13.750
G1 X-47.796 Y35.578 Z13.722
G1 X-48.224 Y35.463 Z13.694
G1 X-48.625 Y35.276 Z13.667
G1 X-48.988 Y35.022 Z13.639
G1 X-49.301 Y34.709 Z13.611
G1 X-49.555 Y34.346 Z13.583
G1 X-49.742 Y33.945 Z13.556
G1 X-49.857 Y33.517 Z13.528
G1 X-49.895 Y33.076 Z13.500
G1 X-49.857 Y32.635 Z13.472
G1 X-49.742 Y32.207 Z13.444
G1 X-49.555 Y31.806 Z13.417
G1 X-49.301 Y31.444 Z13.389
G1 X-48.988 Y31.130 Z13.361
G1 X-48.625 Y30.876 Z13.333
G1 X-48.224 Y30.689 Z13.306
G1 X-47.796 Y30.575 Z13.278
G1 X-47.355 Y30.536 Z13.250
G1 X-46.914 Y30.575 Z13.222
G1 X-46.487 Y30.689 Z13.194
G1 X-46.085 Y30.876 Z13.167
G1 X-45.723 Y31.130 Z13.139
G1 X-45.410 Y31.444 Z13.111
G1 X-45.156 Y31.806 Z13.083
G1 X-44.969 Y32.207 Z13.056
G1 X-44.854 Y32.635 Z13.028
G1 X-44.815 Y33.076 Z13.000
G1 X-44.854 Y33.517 Z12.972
G1 X-44.969 Y33.945 Z12.944
G1 X-45.156 Y34.346 Z12.917
G1 X-45.410 Y34.709 Z12.889
G1 X-45.723 Y35.022 Z12.861
G1 X-46.085 Y35.276 Z12.833
G1 X-46.487 Y35.463 Z12.806
G1 X-46.914 Y35.578 Z12.778
G1 X-47.355 Y35.616 Z12.750
G1 X-47.796 Y35.578 Z12.722
G1 X-48.224 Y35.463 Z12.694
G1 X-48.625 Y35.276 Z12.667
G1 X-48.988 Y35.022 Z12.639
G1 X-49.301 Y34.709 Z12.611
G1 X-49.555 Y34.346 Z12.583
G1 X-49.742 Y33.945 Z12.556
G1 X-49.857 Y33.517 Z12.528
G1 X-49.895 Y33.076 Z12.500
G1 X-49.857 Y32.635 Z12.472
G1 X-49.742 Y32.207 Z12.444
G1 X-49.555 Y31.806 Z12.417
G1 X-49.301 Y31.444 Z12.389
G1 X-48.988 Y31.130 Z12.361
G1 X-48.625 Y30.876 Z12.333
G1 X-48.224 Y30.689 Z12.306
G1 X-47.796 Y30.575 Z12.278
G1 X-47.355 Y30.536 Z12.250
G1 X-46.914 Y30.575 Z12.222
G1 X-46.487 Y30.689 Z12.194
G1 X-46.085 Y30.876 Z12.167
G1 X-45.723 Y31.130 Z12.139
G1 X-45.410 Y31.444 Z12.111
G1 X-45.156 Y31.806 Z12.083
G1 X-44.969 Y32.207 Z12.056
G1 X-44.854 Y32.635 Z12.028
G1 X-44.815 Y33.076 Z12.000
G1 X-47.355 Y33.076 Z12.000
G1 X-48.123 Y33.278 Z12.000 F1500
G1 X-48.812 Y33.672 Z12.000
G1 X-49.298 Y34.300 Z12.000
G1 X-49.668 Y35.002 Z12.000
G1 X-49.832 Y35.778 Z12.000
G1 X-49.774 Y36.570 Z12.000
G1 X-49.937 Y37.347 Z12.000
G1 X-49.677 Y47.655 Z12.000
G1 X-48.805 Y49.862 Z12.000
G1 X-48.012 Y49.862 Z12.000
G0 X-47.885 Y50.010 Z20.000
G0 X-47.885 Y50.010 Z11.000
G1 X-45.383 Y50.451 Z10.972 F500
G1 X-45.498 Y50.878 Z10.944
G1 X-45.685 Y51.280 Z10.917
G1 X-45.939 Y51.642 Z10.889
G1 X-46.252 Y51.955 Z10.861
G1 X-46.615 Y52.209 Z10.833
G1 X-47.016 Y52.396 Z10.806
G1 X-47.444 Y52.511 Z10.778
G1 X-47.885 Y52.550 Z10.750
G1 X-48.326 Y52.511 Z10.722
G1 X-48.753 Y52.396 Z10.694
G1 X-49.155 Y52.209 Z10.667
G1 X-49.517 Y51.955 Z10.639
G1 X-49.830 Y51.642 Z10.611
G1 X-50.084 Y51.280 Z10.583
G1 X-50.271 Y50.878 Z10.556
G1 X-50.386 Y50.451 Z10.528
G1 X-50.425 Y50.010 Z10.500
G1 X-50.386 Y49.568 Z10.472
G1 X-50.271 Y49.141 Z10.444
G1 X-50.084 Y48.740 Z10.417
G1 X-49.830 Y48.377 Z10.389
G1 X-49.517 Y48.064 Z10.361
G1 X-49.155 Y47.810 Z10.333
G1 X-48.753 Y47.623 Z10.306
G1 X-48.326 Y47.508 Z10.278
G1 X-47.885 Y47.470 Z10.250
G1 X-47.444 Y47.508 Z10.222
G1 X-47.016 Y47.623 Z10.194
G1 X-46.615 Y47.810 Z10.167
G1 X-46.252 Y48.064 Z10.139
G1 X-45.939 Y48.377 Z10.111
G1 X-45.685 Y48.740 Z10.083
G1 X-45.498 Y49.141 Z10.056
G1 X-45.383 Y49.568 Z10.028
G1 X-45.345 Y50.010 Z10.000
G1 X-45.383 Y50.451 Z9.972
G1 X-45.498 Y50.878 Z9.944
G1 X-45.685 Y51.280 Z9.917
G1 X-45.939 Y51.642 Z9.889
G1 X-46.252 Y51.955 Z9.861
G1 X-46.615 Y52.209 Z9.833
G1 X-47.016 Y52.396 Z9.806
G1 X-47.444 Y52.511 Z9.778
G1 X-47.885 Y52.550 Z9.750
G1 X-48.326 Y52.511 Z9.722
G1 X-48.753 Y52.396 Z9.694
G1 X-49.155 Y52.209 Z9.667
G1 X-49.517 Y51.955 Z9.639
G1 X-49.830 Y51.642 Z9.611
G1 X-50.084 Y51.280 Z9.583
G1 X-50.271 Y50.878 Z9.556
G1 X-50.386 Y50.451 Z9.528
G1 X-50.425 Y50.010 Z9.500
G1 X-50.386 Y49.568 Z9.472
G1 X-50.271 Y49.141 Z9.444
G1 X-50.084 Y48.740 Z9.417
G1 X-49.830 Y48.377 Z9.389
G1 X-49.517 Y48.064 Z9.361
G1 X-49.155 Y47.810 Z9.333
G1 X-48.753 Y47.623 Z9.306
G1 X-48.326 Y47.508 Z9.278
G1 X-47.885 Y47.470 Z9.250
G1 X-47.444 Y47.508 Z9.222
G1 X-47.016 Y47.623 Z9.194
G1 X-46.615 Y47.810 Z9.167
G1 X-46.252 Y48.064 Z9.139
G1 X-45.939 Y48.377 Z9.111
G1 X-45.685 Y48.740 Z9.083
G1 X-45.498 Y49.141 Z9.056
G1 X-45.383 Y49.568 Z9.028
G1 X-45.345 Y50.010 Z9.000
G1 X-47.885 Y50.010 Z9.000
G1 X-47.139 Y49.738 Z9.000 F1500
G1 X-44.597 Y47.846 Z9.000
G1 X-42.490 Y46.749 Z9.000
G1 X-39.509 Y45.683 Z9.000
G1 X-34.104 Y44.421 Z9.000
G1 X-31.914 Y43.505 Z9.000
G1 X-31.286 Y43.020 Z9.000
G1 X-30.837 Y42.365 Z9.000
G1 X-27.355 Y39.122 Z9.000
G1 X-25.407 Y37.767 Z9.000
G1 X-22.583 Y34.985 Z9.000
G1 X-20.635 Y33.627 Z9.000
G1 X-19.159 Y31.765 Z9.000
G1 X-15.685 Y28.518 Z9.000
G1 X-14.371 Y27.639 Z9.000
G1 X-13.883 Y27.013 Z9.000
G1 X-10.986 Y24.303 Z9.000
G1 X-9.039 Y22.944 Z9.000
G1 X-6.794 Y20.705 Z9.000
G1 X-5.476 Y19.832 Z9.000
G1 X-1.276 Y17.599 Z9.000
G1 X0.222 Y17.092 Z9.000
G1 X2.957 Y15.500 Z9.000
G1 X4.198 Y14.517 Z9.000
G1 X7.585 Y11.177 Z9.000
G1 X9.531 Y9.817 Z9.000
G1 X11.007 Y7.954 Z9.000
G1 X14.479 Y4.706 Z9.000
G1 X15.793 Y3.827 Z9.000
G1 X16.281 Y3.200 Z9.000
G1 X19.177 Y0.489 Z9.000
G1 X21.124 Y-0.871 Z9.000
G1 X23.367 Y-3.111 Z9.000
G1 X24.685 Y-3.984 Z9.000
G1 X28.885 Y-6.219 Z9.000
G1 X30.119 Y-7.208 Z9.000
G1 X32.931 Y-10.001 Z9.000
G1 X34.244 Y-10.881 Z9.000
G1 X34.980 Y-11.179 Z9.000
G1 X35.542 Y-11.739 Z9.000
G1 X36.286 Y-12.015 Z9.000
G1 X40.321 Y-15.822 Z9.000
G1 X41.634 Y-16.703 Z9.000
G1 X45.833 Y-18.938 Z9.000
G1 X47.712 Y-20.389 Z9.000
G1 X48.194 Y-21.020 Z9.000
G1 X48.456 Y-21.769 Z9.000
G1 X48.789 Y-24.126 Z9.000
G1 X48.739 Y-25.706 Z9.000
G1 X47.640 Y-26.850 Z9.000
G1 X46.763 Y-28.167 Z9.000
G1 X45.624 Y-29.258 Z9.000
G1 X45.436 Y-30.030 Z9.000
G1 X44.003 Y-31.917 Z9.000
G1 X43.434 Y-34.194 Z9.000
G1 X42.882 Y-34.765 Z9.000
G1 X42.530 Y-35.476 Z9.000
G1 X42.380 Y-36.256 Z9.000
G1 X40.414 Y-38.738 Z9.000
G1 X39.270 Y-39.828 Z9.000
G1 X37.260 Y-41.080 Z9.000
G1 X35.794 Y-41.673 Z9.000
G1 X35.009 Y-41.784 Z9.000
G1 X34.338 Y-42.209 Z9.000
G1 X33.551 Y-42.313 Z9.000
G1 X32.250 Y-43.217 Z9.000
G1 X31.471 Y-43.365 Z9.000
G1 X28.990 Y-45.329 Z9.000
G1 X27.937 Y-46.512 Z9.000
G1 X26.044 Y-47.941 Z9.000
G1 X24.988 Y-49.122 Z9.000
G1 X23.402 Y-49.159 Z9.000
G1 X22.636 Y-49.370 Z9.000
G1 X21.852 Y-49.246 Z9.000
G1 X21.145 Y-48.885 Z9.000
G1 X18.050 Y-48.204 Z9.000
G1 X15.863 Y-47.280 Z9.000
G1 X11.233 Y-46.187 Z9.000
G1 X8.348 Y-43.468 Z9.000
G1 X7.038 Y-42.579 Z9.000
G1 X5.617 Y-41.881 Z9.000
G1 X4.118 Y-41.366 Z9.000
G1 X3.332 Y-41.260 Z9.000
G1 X1.997 Y-40.404 Z9.000
G1 X1.214 Y-40.274 Z9.000
G1 X-0.093 Y-39.388 Z9.000
G1 X-0.873 Y-39.238 Z9.000
G1 X-2.736 Y-37.768 Z9.000
G1 X-3.799 Y-36.599 Z9.000
G1 X-5.103 Y-35.714 Z9.000
G1 X-9.042 Y-31.808 Z9.000
G1 X-9.736 Y-31.424 Z9.000
G1 X-10.520 Y-31.297 Z9.000
G1 X-11.105 Y-30.761 Z9.000
G1 X-11.813 Y-30.401 Z9.000
G1 X-12.592 Y-30.247 Z9.000
G1 X-14.451 Y-28.772 Z9.000
G1 X-15.236 Y-28.656 Z9.000
G1 X-16.408 Y-27.585 Z9.000
G1 X-17.086 Y-27.173 Z9.000
G1 X-17.871 Y-27.053 Z9.000
G1 X-18.575 Y-26.686 Z9.000
G1 X-19.057 Y-26.056 Z9.000
G1 X-21.838 Y-24.546 Z9.000
G1 X-23.328 Y-24.025 Z9.000
G1 X-26.418 Y-23.318 Z9.000
G1 X-28.598 Y-22.378 Z9.000
G1 X-33.221 Y-21.254 Z9.000
G1 X-33.914 Y-20.867 Z9.000
G1 X-34.706 Y-20.806 Z9.000
G1 X-37.005 Y-20.193 Z9.000
G1 X-37.567 Y-19.632 Z9.000
G1 X-39.065 Y-19.136 Z9.000
G1 X-40.924 Y-17.659 Z9.000
G1 X-41.709 Y-17.542 Z9.000
G1 X-44.501 Y-16.050 Z9.000
G1 X-45.274 Y-15.866 Z9.000
G1 X-48.391 Y-13.421 Z9.000
G1 X-48.714 Y-12.696 Z9.000
G1 X-48.890 Y-11.922 Z9.000
G1 X-48.922 Y-5.574 Z9.000
G1 X-48.581 Y-3.224 Z9.000
G1 X-48.113 Y-1.717 Z9.000
G1 X-47.734 Y-1.019 Z9.000
G1 X-47.443 Y0.536 Z9.000
G1 X-47.316 Y2.117 Z9.000
G1 X-47.411 Y2.905 Z9.000
G1 X-47.053 Y5.250 Z9.000
G1 X-46.734 Y5.976 Z9.000
G1 X-45.990 Y9.062 Z9.000
G1 X-46.000 Y9.855 Z9.000
G1 X-45.669 Y10.577 Z9.000
G1 X-45.606 Y12.157 Z9.000
G1 X-45.887 Y13.714 Z9.000
G1 X-45.436 Y16.850 Z9.000
G1 X-44.982 Y18.363 Z9.000
G1 X-44.599 Y19.058 Z9.000
G1 X-43.914 Y22.150 Z9.000
G1 X-42.373 Y25.799 Z9.000
G1 X-40.931 Y27.688 Z9.000
G1 X-40.829 Y28.475 Z9.000
G1 X-39.751 Y29.640 Z9.000
G1 X-39.340 Y30.320 Z9.000
G1 X-39.218 Y31.104 Z9.000
G1 X-38.849 Y31.807 Z9.000
G1 X-38.218 Y32.289 Z9.000
G1 X-36.702 Y35.067 Z9.000
G1 X-36.178 Y36.555 Z9.000
G1 X-35.643 Y38.870 Z9.000
G1 X-36.389 Y39.142 Z9.000
G1 X-36.898 Y39.750 Z9.000
G1 X-38.447 Y40.098 Z9.000
G1 X-46.361 Y39.533 Z9.000
G1 X-49.452 Y38.841 Z9.000
G1 X-49.901 Y38.186 Z9.000
G1 X-49.740 Y35.823 Z9.000
G1 X-49.297 Y35.164 Z9.000
G1 X-48.146 Y31.371 Z9.000
G1 X-47.068 Y29.257 Z9.000
G1 X-47.582 Y27.756 Z9.000
G1 X-48.947 Y25.809 Z9.000
G1 X-49.426 Y24.297 Z9.000
G1 X-49.885 Y21.963 Z9.000
G1 X-49.934 Y20.384 Z9.000
G1 X-49.360 Y10.883 Z9.000
G1 X-49.999 Y4.575 Z9.000
G1 X-49.880 Y3.790 Z9.000
G1 X-49.905 Y0.616 Z9.000
G1 X-41.005 Y-2.907 Z9.000
G1 X-39.529 Y-3.491 Z9.000
G1 X-34.902 Y-4.585 Z9.000
G1 X-30.172 Y-5.065 Z9.000
G1 X-29.387 Y-4.946 Z9.000
G1 X-28.627 Y-5.175 Z9.000
G1 X-27.045 Y-5.304 Z9.000
G1 X-26.318 Y-5.623 Z9.000
G1 X-23.229 Y-6.353 Z9.000
G1 X-22.436 Y-6.340 Z9.000
G1 X-21.151 Y-7.267 Z9.000
G1 X-20.366 Y-7.387 Z9.000
G1 X-19.191 Y-8.455 Z9.000
G1 X-16.618 Y-10.308 Z9.000
G1 X-16.132 Y-10.936 Z9.000
G1 X-10.427 Y-16.453 Z9.000
G1 X-7.845 Y-18.289 Z9.000
G1 X-6.192 Y-19.991 Z9.000
G1 X-5.398 Y-20.002 Z9.000
G1 X-4.703 Y-20.386 Z9.000
G1 X-4.241 Y-21.032 Z9.000
G1 X-2.527 Y-22.683 Z9.000
G1 X-1.218 Y-23.569 Z9.000
G1 X0.876 Y-24.693 Z9.000
G1 X3.100 Y-25.519 Z9.000
G1 X5.828 Y-27.135 Z9.000
G1 X6.598 Y-27.328 Z9.000
G1 X7.911 Y-28.206 Z9.000
G1 X8.687 Y-28.374 Z9.000
G1 X15.502 Y-35.025 Z9.000
G1 X18.701 Y-37.361 Z9.000
G1 X19.488 Y-37.459 Z9.000
G1 X20.196 Y-37.819 Z9.000
G1 X21.749 Y-38.140 Z9.000
G1 X23.810 Y-36.949 Z9.000
G1 X24.371 Y-36.388 Z9.000
G1 X24.699 Y-35.665 Z9.000
G1 X25.724 Y-34.455 Z9.000
G1 X29.665 Y-30.544 Z9.000
G1 X31.516 Y-27.973 Z9.000
G1 X33.802 Y-25.781 Z9.000
G1 X33.788 Y-24.987 Z9.000
G1 X34.184 Y-24.300 Z9.000
G1 X34.325 Y-23.518 Z9.000
G1 X32.901 Y-21.617 Z9.000
G1 X31.731 Y-20.550 Z9.000
G1 X30.176 Y-20.280 Z9.000
G1 X28.711 Y-19.670 Z9.000
G1 X26.406 Y-17.493 Z9.000
G1 X25.063 Y-16.657 Z9.000
G1 X24.560 Y-16.042 Z9.000
G1 X22.171 Y-13.954 Z9.000
G1 X21.395 Y-13.787 Z9.000
G1 X18.607 Y-12.276 Z9.000
G1 X17.343 Y-11.327 Z9.000
G1 X15.912 Y-10.659 Z9.000
G1 X14.642 Y-9.719 Z9.000
G1 X12.507 Y-8.683 Z9.000
G1 X11.728 Y-8.533 Z9.000
G1 X9.808 Y-7.136 Z9.000
G1 X1.319 Y-2.830 Z9.000
G1 X-2.185 Y0.389 Z9.000
G1 X-2.960 Y0.559 Z9.000
G1 X-4.326 Y1.367 Z9.000
G1 X-5.109 Y1.499 Z9.000
G1 X-8.079 Y4.128 Z9.000
G1 X-8.853 Y4.303 Z9.000
G1 X-10.218 Y5.113 Z9.000
G1 X-11.000 Y5.247 Z9.000
G1 X-12.469 Y5.848 Z9.000
G1 X-14.409 Y7.218 Z9.000
G1 X-16.483 Y9.604 Z9.000
G1 X-17.235 Y9.857 Z9.000
G1 X-17.831 Y10.381 Z9.000
G1 X-18.327 Y11.001 Z9.000
G1 X-21.868 Y14.180 Z9.000
G1 X-22.831 Y15.435 Z9.000
G1 X-23.580 Y15.697 Z9.000
G1 X-24.815 Y16.692 Z9.000
G1 X-29.376 Y22.180 Z9.000
G1 X-31.756 Y24.271 Z9.000
G1 X-31.984 Y25.032 Z9.000
G1 X-31.936 Y26.610 Z9.000
G1 X-31.420 Y27.213 Z9.000
G1 X-30.736 Y27.616 Z9.000
G1 X-29.550 Y28.671 Z9.000
G1 X-28.763 Y28.574 Z9.000
G1 X-27.297 Y27.971 Z9.000
G1 X-24.709 Y26.140 Z9.000
G1 X-22.716 Y23.673 Z9.000
G1 X-22.393 Y22.948 Z9.000
G1 X-20.247 Y19.611 Z9.000
G1 X-18.169 Y17.219 Z9.000
G1 X-15.225 Y14.568 Z9.000
G1 X-9.367 Y10.493 Z9.000
G1 X1.883 Y4.615 Z9.000
G1 X2.464 Y4.075 Z9.000
G1 X16.720 Y-6.009 Z9.000
G1 X10.324 Y-15.607 Z9.000
G1 X9.443 Y-16.928 Z9.000
G1 X8.732 Y-17.280 Z9.000
G1 X7.938 Y-17.300 Z9.000
G1 X4.920 Y-16.347 Z9.000
G1 X4.386 Y-15.760 Z9.000
G1 X-8.201 Y-7.457 Z9.000
G1 X-17.117 Y0.421 Z9.000
G1 X-19.125 Y1.688 Z9.000
G1 X-19.884 Y1.923 Z9.000
G1 X-24.850 Y4.410 Z9.000
G1 X-28.625 Y5.613 Z9.000
G1 X-34.860 Y6.773 Z9.000
G1 X-36.100 Y7.763 Z9.000
G1 X-36.502 Y8.447 Z9.000
G1 X-36.700 Y9.216 Z9.000
G1 X-36.533 Y9.992 Z9.000
G1 X-36.089 Y10.650 Z9.000
G1 X-35.687 Y12.181 Z9.000
G1 X-35.069 Y12.679 Z9.000
G1 X-35.114 Y13.472 Z9.000
G1 X-35.423 Y14.203 Z9.000
G1 X-35.321 Y14.990 Z9.000
G1 X-35.507 Y16.567 Z9.000
G0 X-17.722 Y40.485 Z20.000
G0 X-17.722 Y40.485 Z11.000
G1 X-15.221 Y40.926 Z10.972 F500
G1 X-15.335 Y41.353 Z10.944
G1 X-15.522 Y41.755 Z10.917
G1 X-15.776 Y42.117 Z10.889
G1 X-16.089 Y42.430 Z10.861
G1 X-16.452 Y42.684 Z10.833
G1 X-16.853 Y42.871 Z10.806
G1 X-17.281 Y42.986 Z10.778
G1 X-17.722 Y43.025 Z10.750
G1 X-18.163 Y42.986 Z10.722
G1 X-18.591 Y42.871 Z10.694
G1 X-18.992 Y42.684 Z10.667
G1 X-19.355 Y42.430 Z10.639
G1 X-19.668 Y42.117 Z10.611
G1 X-19.922 Y41.755 Z10.583
G1 X-20.109 Y41.353 Z10.556
G1 X-20.224 Y40.926 Z10.528
G1 X-20.262 Y40.485 Z10.500
G1 X-20.224 Y40.043 Z10.472
G1 X-20.109 Y39.616 Z10.444
G1 X-19.922 Y39.215 Z10.417
G1 X-19.668 Y38.852 Z10.389
G1 X-19.355 Y38.539 Z10.361
G1 X-18.992 Y38.285 Z10.333
G1 X-18.591 Y38.098 Z10.306
G1 X-18.163 Y37.983 Z10.278
G1 X-17.722 Y37.945 Z10.250
G1 X-17.281 Y37.983 Z10.222
G1 X-16.853 Y38.098 Z10.194
G1 X-16.452 Y38.285 Z10.167
G1 X-16.089 Y38.539 Z10.139
G1 X-15.776 Y38.852 Z10.111
G1 X-15.522 Y39.215 Z10.083
G1 X-15.335 Y39.616 Z10.056
G1 X-15.221 Y40.043 Z10.028
G1 X-15.182 Y40.485 Z10.000
G1 X-15.221 Y40.926 Z9.972
G1 X-15.335 Y41.353 Z9.944
G1 X-15.522 Y41.755 Z9.917
G1 X-15.776 Y42.117 Z9.889
G1 X-16.089 Y42.430 Z9.861
G1 X-16.452 Y42.684 Z9.833
G1 X-16.853 Y42.871 Z9.806
G1 X-17.281 Y42.986 Z9.778
G1 X-17.722 Y43.025 Z9.750
G1 X-18.163 Y42.986 Z9.722
G1 X-18.591 Y42.871 Z9.694
G1 X-18.992 Y42.684 Z9.667
G1 X-19.355 Y42.430 Z9.639
G1 X-19.668 Y42.117 Z9.611
G1 X-19.922 Y41.755 Z9.583
G1 X-20.109 Y41.353 Z9.556
G1 X-20.224 Y40.926 Z9.528
G1 X-20.262 Y40.485 Z9.500
G1 X-20.224 Y40.043 Z9.472
G1 X-20.109 Y39.616 Z9.444
G1 X-19.922 Y39.215 Z9.417
G1 X-19.668 Y38.852 Z9.389
G1 X-19.355 Y38.539 Z9.361
G1 X-18.992 Y38.285 Z9.333
G1 X-18.591 Y38.098 Z9.306
G1 X-18.163 Y37.983 Z9.278
G1 X-17.722 Y37.945 Z9.250
G1 X-17.281 Y37.983 Z9.222
G1 X-16.853 Y38.098 Z9.194
G1 X-16.452 Y38.285 Z9.167
G1 X-16.089 Y38.539 Z9.139
G1 X-15.776 Y38.852 Z9.111
G1 X-15.522 Y39.215 Z9.083
G1 X-15.335 Y39.616 Z9.056
G1 X-15.221 Y40.043 Z9.028
G1 X-15.182 Y40.485 Z9.000
G1 X-17.722 Y40.485 Z9.000
G1 X-17.137 Y41.960 Z9.000 F1500
G1 X-16.040 Y46.587 Z9.000
G1 X-15.927 Y48.164 Z9.000
G1 X-15.298 Y48.648 Z9.000
G1 X-14.579 Y48.985 Z9.000
G1 X-13.786 Y49.018 Z9.000
G1 X-10.638 Y48.619 Z9.000
G1 X-6.814 Y47.585 Z9.000
G1 X-6.021 Y47.597 Z9.000
G1 X-4.736 Y46.670 Z9.000
G1 X-3.250 Y46.120 Z9.000
G1 X-1.925 Y45.262 Z9.000
G1 X-1.151 Y45.090 Z9.000
G1 X1.336 Y43.127 Z9.000
G1 X2.070 Y42.826 Z9.000
G1 X3.436 Y42.016 Z9.000
G1 X4.017 Y41.476 Z9.000
G1 X4.764 Y41.208 Z9.000
G1 X6.123 Y40.387 Z9.000
G1 X7.362 Y39.399 Z9.000
G1 X10.152 Y36.586 Z9.000
G1 X11.458 Y35.695 Z9.000
G1 X13.559 Y34.585 Z9.000
G1 X14.333 Y34.408 Z9.000
G1 X16.531 Y33.496 Z9.000
G1 X17.318 Y33.392 Z9.000
G1 X17.993 Y32.974 Z9.000
G1 X19.487 Y32.437 Z9.000
G1 X20.105 Y31.940 Z9.000
G1 X22.198 Y30.807 Z9.000
G1 X23.432 Y29.816 Z9.000
G1 X24.221 Y29.730 Z9.000
G1 X24.921 Y29.357 Z9.000
G1 X28.781 Y28.454 Z9.000
G1 X31.378 Y26.643 Z9.000
G1 X32.167 Y26.551 Z9.000
G1 X33.450 Y25.638 Z9.000
G1 X34.230 Y25.489 Z9.000
G1 X36.081 Y24.005 Z9.000
G1 X36.551 Y23.365 Z9.000
G1 X37.718 Y22.289 Z9.000
G1 X39.643 Y20.894 Z9.000
G1 X42.995 Y17.519 Z9.000
G1 X44.925 Y16.135 Z9.000
G1 X48.279 Y12.761 Z9.000
G1 X48.936 Y10.477 Z9.000
G1 X48.186 Y7.398 Z9.000
G1 X47.806 Y6.701 Z9.000
G1 X47.733 Y5.910 Z9.000
G1 X47.326 Y5.229 Z9.000
G1 X46.631 Y2.138 Z9.000
G1 X45.688 Y-0.040 Z9.000
G1 X45.141 Y-2.353 Z9.000
G1 X45.369 Y-3.114 Z9.000
G1 X45.077 Y-4.667 Z9.000
G1 X45.455 Y-5.365 Z9.000
G1 X45.485 Y-6.158 Z9.000
G1 X46.414 Y-7.445 Z9.000
G1 X49.784 Y-10.795 Z9.000
G1 X49.922 Y-10.013 Z9.000
G1 X49.784 Y-9.232 Z9.000
G1 X49.979 Y-8.462 Z9.000
G1 X49.814 Y-6.887 Z9.000
G1 X49.979 Y-5.315 Z9.000
G1 X49.841 Y-4.533 Z9.000
G1 X49.812 Y-1.359 Z9.000
G1 X50.005 Y-0.590 Z9.000
G1 X49.867 Y0.192 Z9.000
G1 X49.877 Y3.366 Z9.000
G1 X40.486 Y6.618 Z9.000
G1 X39.736 Y6.878 Z9.000
G1 X36.261 Y8.785 Z9.000
G1 X35.678 Y9.324 Z9.000
G1 X34.924 Y9.570 Z9.000
G1 X31.432 Y11.455 Z9.000
G1 X26.951 Y13.042 Z9.000
G1 X23.846 Y13.670 Z9.000
G1 X21.519 Y13.200 Z9.000
G1 X20.808 Y12.847 Z9.000
G1 X20.042 Y13.056 Z9.000
G1 X19.429 Y13.560 Z9.000
G1 X17.952 Y15.425 Z9.000
G1 X17.637 Y16.153 Z9.000
G1 X15.506 Y19.500 Z9.000
G1 X13.437 Y21.900 Z9.000
G1 X12.697 Y22.187 Z9.000
G1 X10.797 Y23.616 Z9.000
G1 X8.681 Y24.697 Z9.000
G1 X7.904 Y24.863 Z9.000
G1 X4.208 Y26.305 Z9.000
G1 X3.561 Y26.765 Z9.000
G1 X2.782 Y26.914 Z9.000
G1 X1.569 Y27.936 Z9.000
G1 X-0.527 Y29.051 Z9.000
G1 X-2.822 Y31.241 Z9.000
G1 X-4.146 Y32.109 Z9.000
G1 X-4.637 Y32.733 Z9.000
G1 X-7.559 Y35.415 Z9.000
G1 X-8.882 Y36.283 Z9.000
G1 X-10.569 Y37.951 Z9.000
G1 X-10.573 Y38.744 Z9.000
G1 X-10.176 Y39.432 Z9.000
G1 X-8.386 Y40.984 Z9.000
G1 X-5.254 Y41.364 Z9.000
G1 X-3.405 Y39.864 Z9.000
G1 X4.720 Y31.172 Z9.000
G1 X7.628 Y28.472 Z9.000
G1 X10.241 Y26.682 Z9.000
G1 X22.841 Y19.960 Z9.000
G1 X33.244 Y16.075 Z9.000
G1 X35.306 Y14.898 Z9.000
G1 X38.580 Y12.665 Z9.000
G1 X32.020 Y2.914 Z9.000
G1 X31.421 Y2.392 Z9.000
G1 X30.627 Y2.392 Z9.000
G1 X29.881 Y2.121 Z9.000
G1 X26.720 Y2.051 Z9.000
G1 X26.112 Y2.561 Z9.000
G1 X24.587 Y2.984 Z9.000
G1 X37.311 Y-0.261 Z9.000
G1 X38.057 Y-0.533 Z9.000
G1 X38.707 Y-0.988 Z9.000
G1 X39.829 Y-2.110 Z9.000
G0 X23.553 Y-24.603 Z20.000
G0 X23.553 Y-24.603 Z11.000
G1 X26.054 Y-24.162 Z10.972 F500
G1 X25.940 Y-23.734 Z10.944
G1 X25.753 Y-23.333 Z10.917
G1 X25.499 Y-22.970 Z10.889
G1 X25.186 Y-22.657 Z10.861
G1 X24.823 Y-22.403 Z10.833
G1 X24.422 Y-22.216 Z10.806
G1 X23.994 Y-22.102 Z10.778
G1 X23.553 Y-22.063 Z10.750
G1 X23.112 Y-22.102 Z10.722
G1 X22.684 Y-22.216 Z10.694
G1 X22.283 Y-22.403 Z10.667
G1 X21.920 Y-22.657 Z10.639
G1 X21.607 Y-22.970 Z10.611
G1 X21.353 Y-23.333 Z10.583
G1 X21.166 Y-23.734 Z10.556
G1 X21.051 Y-24.162 Z10.528
G1 X21.013 Y-24.603 Z10.500
G1 X21.051 Y-25.044 Z10.472
G1 X21.166 Y-25.472 Z10.444
G1 X21.353 Y-25.873 Z10.417
G1 X21.607 Y-26.236 Z10.389
G1 X21.920 Y-26.549 Z10.361
G1 X22.283 Y-26.803 Z10.333
G1 X22.684 Y-26.990 Z10.306
G1 X23.112 Y-27.104 Z10.278
G1 X23.553 Y-27.143 Z10.250
G1 X23.994 Y-27.104 Z10.222
G1 X24.422 Y-26.990 Z10.194
G1 X24.823 Y-26.803 Z10.167
G1 X25.186 Y-26.549 Z10.139
G1 X25.499 Y-26.236 Z10.111
G1 X25.753 Y-25.873 Z10.083
G1 X25.940 Y-25.472 Z10.056
G1 X26.054 Y-25.044 Z10.028
G1 X26.093 Y-24.603 Z10.000
G1 X26.054 Y-24.162 Z9.972
G1 X25.940 Y-23.734 Z9.944
G1 X25.753 Y-23.333 Z9.917
G1 X25.499 Y-22.970 Z9.889
G1 X25.186 Y-22.657 Z9.861
G1 X24.823 Y-22.403 Z9.833
G1 X24.422 Y-22.216 Z9.806
G1 X23.994 Y-22.102 Z9.778
G1 X23.553 Y-22.063 Z9.750
G1 X23.112 Y-22.102 Z9.722
G1 X22.684 Y-22.216 Z9.694
G1 X22.283 Y-22.403 Z9.667
G1 X21.920 Y-22.657 Z9.639
G1 X21.607 Y-22.970 Z9.611
G1 X21.353 Y-23.333 Z9.583
G1 X21.166 Y-23.734 Z9.556
G1 X21.051 Y-24.162 Z9.528
G1 X21.013 Y-24.603 Z9.500
G1 X21.051 Y-25.044 Z9.472
G1 X21.166 Y-25.472 Z9.444
G1 X21.353 Y-25.873 Z9.417
G1 X21.607 Y-26.236 Z9.389
G1 X21.920 Y-26.549 Z9.361
G1 X22.283 Y-26.803 Z9.333
G1 X22.684 Y-26.990 Z9.306
G1 X23.112 Y-27.104 Z9.278
G1 X23.553 Y-27.143 Z9.250
G1 X23.994 Y-27.104 Z9.222
G1 X24.422 Y-26.990 Z9.194
G1 X24.823 Y-26.803 Z9.167
G1 X25.186 Y-26.549 Z9.139
G1 X25.499 Y-26.236 Z9.111
G1 X25.753 Y-25.873 Z9.083
G1 X25.940 Y-25.472 Z9.056
G1 X26.054 Y-25.044 Z9.028
G1 X26.093 Y-24.603 Z9.000
G1 X23.553 Y-24.603 Z9.000
G1 X22.104 Y-25.251 Z9.000 F1500
G1 X21.320 Y-25.377 Z9.000
G1 X20.528 Y-25.434 Z9.000
G1 X19.010 Y-24.971 Z9.000
G1 X16.081 Y-22.300 Z9.000
G0 X0.799 Y-47.886 Z20.000
G0 X0.799 Y-47.886 Z11.000
G1 X3.300 Y-47.445 Z10.972 F500
G1 X3.186 Y-47.018 Z10.944
G1 X2.998 Y-46.616 Z10.917
G1 X2.744 Y-46.254 Z10.889
G1 X2.431 Y-45.941 Z10.861
G1 X2.069 Y-45.687 Z10.833
G1 X1.667 Y-45.499 Z10.806
G1 X1.240 Y-45.385 Z10.778
G1 X0.799 Y-45.346 Z10.750
G1 X0.358 Y-45.385 Z10.722
G1 X-0.070 Y-45.499 Z10.694
G1 X-0.471 Y-45.687 Z10.667
G1 X-0.834 Y-45.941 Z10.639
G1 X-1.147 Y-46.254 Z10.611
G1 X-1.401 Y-46.616 Z10.583
G1 X-1.588 Y-47.018 Z10.556
G1 X-1.703 Y-47.445 Z10.528
G1 X-1.741 Y-47.886 Z10.500
G1 X-1.703 Y-48.327 Z10.472
G1 X-1.588 Y-48.755 Z10.444
G1 X-1.401 Y-49.156 Z10.417
G1 X-1.147 Y-49.519 Z10.389
G1 X-0.834 Y-49.832 Z10.361
G1 X-0.471 Y-50.086 Z10.333
G1 X-0.070 Y-50.273 Z10.306
G1 X0.358 Y-50.388 Z10.278
G1 X0.799 Y-50.426 Z10.250
G1 X1.240 Y-50.388 Z10.222
G1 X1.667 Y-50.273 Z10.194
G1 X2.069 Y-50.086 Z10.167
G1 X2.431 Y-49.832 Z10.139
G1 X2.744 Y-49.519 Z10.111
G1 X2.998 Y-49.156 Z10.083
G1 X3.186 Y-48.755 Z10.056
G1 X3.300 Y-48.327 Z10.028
G1 X3.339 Y-47.886 Z10.000
G1 X3.300 Y-47.445 Z9.972
G1 X3.186 Y-47.018 Z9.944
G1 X2.998 Y-46.616 Z9.917
G1 X2.744 Y-46.254 Z9.889
G1 X2.431 Y-45.941 Z9.861
G1 X2.069 Y-45.687 Z9.833
G1 X1.667 Y-45.499 Z9.806
G1 X1.240 Y-45.385 Z9.778
G1 X0.799 Y-45.346 Z9.750
G1 X0.358 Y-45.385 Z9.722
G1 X-0.070 Y-45.499 Z9.694
G1 X-0.471 Y-45.687 Z9.667
G1 X-0.834 Y-45.941 Z9.639
G1 X-1.147 Y-46.254 Z9.611
G1 X-1.401 Y-46.616 Z9.583
G1 X-1.588 Y-47.018 Z9.556
G1 X-1.703 Y-47.445 Z9.528
G1 X-1.741 Y-47.886 Z9.500
G1 X-1.703 Y-48.327 Z9.472
G1 X-1.588 Y-48.755 Z9.444
G1 X-1.401 Y-49.156 Z9.417
G1 X-1.147 Y-49.519 Z9.389
G1 X-0.834 Y-49.832 Z9.361
G1 X-0.471 Y-50.086 Z9.333
G1 X-0.070 Y-50.273 Z9.306
G1 X0.358 Y-50.388 Z9.278
G1 X0.799 Y-50.426 Z9.250
G1 X1.240 Y-50.388 Z9.222
G1 X1.667 Y-50.273 Z9.194
G1 X2.069 Y-50.086 Z9.167
G1 X2.431 Y-49.832 Z9.139
G1 X2.744 Y-49.519 Z9.111
G1 X2.998 Y-49.156 Z9.083
G1 X3.186 Y-48.755 Z9.056
G1 X3.300 Y-48.327 Z9.028
G1 X3.339 Y-47.886 Z9.000
G1 X0.799 Y-47.886 Z9.000
G1 X0.392 Y-48.568 Z9.000 F1500
G1 X-2.725 Y-49.155 Z9.000
G1 X-5.097 Y-49.204 Z9.000
G1 X-5.793 Y-48.822 Z9.000
G1 X-8.908 Y-48.232 Z9.000
G1 X-10.370 Y-47.628 Z9.000
G1 X-12.312 Y-46.261 Z9.000
G1 X-14.445 Y-45.220 Z9.000
G1 X-15.224 Y-45.068 Z9.000
G1 X-16.454 Y-44.065 Z9.000
G1 X-17.221 Y-43.860 Z9.000
G1 X-18.596 Y-43.067 Z9.000
G1 X-19.051 Y-42.417 Z9.000
G1 X-19.674 Y-41.925 Z9.000
G1 X-20.454 Y-41.778 Z9.000
G1 X-21.808 Y-40.953 Z9.000
G1 X-22.591 Y-40.823 Z9.000
G1 X-24.498 Y-39.411 Z9.000
G1 X-26.625 Y-38.352 Z9.000
G1 X-27.403 Y-38.195 Z9.000
G1 X-29.785 Y-36.100 Z9.000
G1 X-30.745 Y-34.842 Z9.000
G1 X-31.496 Y-34.585 Z9.000
G1 X-32.731 Y-33.590 Z9.000
G1 X-33.863 Y-32.480 Z9.000
G1 X-34.825 Y-31.223 Z9.000
G1 X-36.353 Y-30.806 Z9.000
G1 X-37.145 Y-30.859 Z9.000
G1 X-39.512 Y-30.611 Z9.000
G1 X-40.253 Y-30.326 Z9.000
G1 X-43.359 Y-29.672 Z9.000
G1 X-45.568 Y-28.802 Z9.000
G1 X-48.676 Y-28.173 Z9.000
G1 X-49.738 Y-27.001 Z9.000
G1 X-49.974 Y-23.044 Z9.000
G1 X-49.228 Y-22.773 Z9.000
G1 X-48.776 Y-22.121 Z9.000
G1 X-47.996 Y-21.973 Z9.000
G1 X-47.235 Y-22.199 Z9.000
G1 X-45.648 Y-22.226 Z9.000
G1 X-39.861 Y-24.824 Z9.000
G1 X-41.535 Y-37.303 Z9.000
G1 X-41.957 Y-40.450 Z9.000
G1 X-42.630 Y-41.886 Z9.000
G1 X-42.690 Y-42.677 Z9.000
G1 X-43.347 Y-44.964 Z9.000
G1 X-43.756 Y-45.645 Z9.000
G1 X-43.828 Y-46.435 Z9.000
G1 X-44.472 Y-48.726 Z9.000
G1 X-44.878 Y-49.409 Z9.000
G1 X-45.490 Y-49.914 Z9.000
G1 X-48.663 Y-49.957 Z9.000
G1 X-49.234 Y-49.406 Z9.000
G1 X-49.978 Y-48.006 Z9.000
G1 X-49.124 Y-40.923 Z9.000
G1 X-48.665 Y-39.410 Z9.000
G1 X-48.004 Y-37.970 Z9.000
G1 X-48.612 Y-37.460 Z9.000
G1 X-48.708 Y-35.882 Z9.000
G1 X-35.714 Y-44.182 Z9.000
G1 X-33.038 Y-45.891 Z9.000
G1 X-30.050 Y-48.492 Z9.000
G1 X-29.269 Y-48.631 Z9.000
G1 X-27.141 Y-49.691 Z9.000
G1 X-25.572 Y-49.920 Z9.000
G1 X-20.814 Y-49.998 Z9.000
G1 X-13.489 Y-37.832 Z9.000
G1 X-24.072 Y-31.482 Z9.000
G1 X-19.839 Y-17.724 Z9.000
G1 X-19.977 Y-16.942 Z9.000
G1 X-20.997 Y-15.726 Z9.000
G1 X-23.833 Y-12.954 Z9.000
G1 X-33.358 Y-12.953 Z9.000
G0 X-24.072 Y46.305 Z20.000
G0 X-24.072 Y46.305 Z11.000
G1 X-21.571 Y46.746 Z10.972 F500
G1 X-21.685 Y47.174 Z10.944
G1 X-21.872 Y47.575 Z10.917
G1 X-22.126 Y47.938 Z10.889
G1 X-22.439 Y48.251 Z10.861
G1 X-22.802 Y48.505 Z10.833
G1 X-23.203 Y48.692 Z10.806
G1 X-23.631 Y48.807 Z10.778
G1 X-24.072 Y48.845 Z10.750
G1 X-24.513 Y48.807 Z10.722
G1 X-24.941 Y48.692 Z10.694
G1 X-25.342 Y48.505 Z10.667
G1 X-25.705 Y48.251 Z10.639
G1 X-26.018 Y47.938 Z10.611
G1 X-26.272 Y47.575 Z10.583
G1 X-26.459 Y47.174 Z10.556
G1 X-26.574 Y46.746 Z10.528
G1 X-26.612 Y46.305 Z10.500
G1 X-26.574 Y45.864 Z10.472
G1 X-26.459 Y45.437 Z10.444
G1 X-26.272 Y45.035 Z10.417
G1 X-26.018 Y44.673 Z10.389
G1 X-25.705 Y44.360 Z10.361
G1 X-25.342 Y44.106 Z10.333
G1 X-24.941 Y43.919 Z10.306
G1 X-24.513 Y43.804 Z10.278
G1 X-24.072 Y43.765 Z10.250
G1 X-23.631 Y43.804 Z10.222
G1 X-23.203 Y43.919 Z10.194
G1 X-22.802 Y44.106 Z10.167
G1 X-22.439 Y44.360 Z10.139
G1 X-22.126 Y44.673 Z10.111
G1 X-21.872 Y45.035 Z10.083
G1 X-21.685 Y45.437 Z10.056
G1 X-21.571 Y45.864 Z10.028
G1 X-21.532 Y46.305 Z10.000
G1 X-21.571 Y46.746 Z9.972
G1 X-21.685 Y47.174 Z9.944
G1 X-21.872 Y47.575 Z9.917
G1 X-22.126 Y47.938 Z9.889
G1 X-22.439 Y48.251 Z9.861
G1 X-22.802 Y48.505 Z9.833
G1 X-23.203 Y48.692 Z9.806
G1 X-23.631 Y48.807 Z9.778
G1 X-24.072 Y48.845 Z9.750
G1 X-24.513 Y48.807 Z9.722
G1 X-24.941 Y48.692 Z9.694
G1 X-25.342 Y48.505 Z9.667
G1 X-25.705 Y48.251 Z9.639
G1 X-26.018 Y47.938 Z9.611
G1 X-26.272 Y47.575 Z9.583
G1 X-26.459 Y47.174 Z9.556
G1 X-26.574 Y46.746 Z9.528
G1 X-26.612 Y46.305 Z9.500
G1 X-26.574 Y45.864 Z9.472
G1 X-26.459 Y45.437 Z9.444
G1 X-26.272 Y45.035 Z9.417
G1 X-26.018 Y44.673 Z9.389
G1 X-25.705 Y44.360 Z9.361
G1 X-25.342 Y44.106 Z9.333
G1 X-24.941 Y43.919 Z9.306
G1 X-24.513 Y43.804 Z9.278
G1 X-24.072 Y43.765 Z9.250
G1 X-23.631 Y43.804 Z9.222
G1 X-23.203 Y43.919 Z9.194
G1 X-22.802 Y44.106 Z9.167
G1 X-22.439 Y44.360 Z9.139
G1 X-22.126 Y44.673 Z9.111
G1 X-21.872 Y45.035 Z9.083
G1 X-21.685 Y45.437 Z9.056
G1 X-21.571 Y45.864 Z9.028
G1 X-21.532 Y46.305 Z9.000
G1 X-24.072 Y46.305 Z9.000
G1 X-24.156 Y47.095 Z9.000 F1500
G1 X-25.472 Y49.972 Z9.000
G1 X-28.647 Y49.972 Z9.000
G0 X10.853 Y46.305 Z20.000
G0 X10.853 Y46.305 Z11.000
G1 X13.354 Y46.746 Z10.972 F500
G1 X13.240 Y47.174 Z10.944
G1 X13.053 Y47.575 Z10.917
G1 X12.799 Y47.938 Z10.889
G1 X12.486 Y48.251 Z10.861
G1 X12.123 Y48.505 Z10.833
G1 X11.722 Y48.692 Z10.806
G1 X11.294 Y48.807 Z10.778
G1 X10.853 Y48.845 Z10.750
G1 X10.412 Y48.807 Z10.722
G1 X9.984 Y48.692 Z10.694
G1 X9.583 Y48.505 Z10.667
G1 X9.220 Y48.251 Z10.639
G1 X8.907 Y47.938 Z10.611
G1 X8.653 Y47.575 Z10.583
G1 X8.466 Y47.174 Z10.556
G1 X8.351 Y46.746 Z10.528
G1 X8.313 Y46.305 Z10.500
G1 X8.351 Y45.864 Z10.472
G1 X8.466 Y45.437 Z10.444
G1 X8.653 Y45.035 Z10.417
G1 X8.907 Y44.673 Z10.389
G1 X9.220 Y44.360 Z10.361
G1 X9.583 Y44.106 Z10.333
G1 X9.984 Y43.919 Z10.306
G1 X10.412 Y43.804 Z10.278
G1 X10.853 Y43.765 Z10.250
G1 X11.294 Y43.804 Z10.222
G1 X11.722 Y43.919 Z10.194
G1 X12.123 Y44.106 Z10.167
G1 X12.486 Y44.360 Z10.139
G1 X12.799 Y44.673 Z10.111
G1 X13.053 Y45.035 Z10.083
G1 X13.240 Y45.437 Z10.056
G1 X13.354 Y45.864 Z10.028
G1 X13.393 Y46.305 Z10.000
G1 X13.354 Y46.746 Z9.972
G1 X13.240 Y47.174 Z9.944
G1 X13.053 Y47.575 Z9.917
G1 X12.799 Y47.938 Z9.889
G1 X12.486 Y48.251 Z9.861
G1 X12.123 Y48.505 Z9.833
G1 X11.722 Y48.692 Z9.806
G1 X11.294 Y48.807 Z9.778
G1 X10.853 Y48.845 Z9.750
G1 X10.412 Y48.807 Z9.722
G1 X9.984 Y48.692 Z9.694
G1 X9.583 Y48.505 Z9.667
G1 X9.220 Y48.251 Z9.639
G1 X8.907 Y47.938 Z9.611
G1 X8.653 Y47.575 Z9.583
G1 X8.466 Y47.174 Z9.556
G1 X8.351 Y46.746 Z9.528
G1 X8.313 Y46.305 Z9.500
G1 X8.351 Y45.864 Z9.472
G1 X8.466 Y45.437 Z9.444
G1 X8.653 Y45.035 Z9.417
G1 X8.907 Y44.673 Z9.389
G1 X9.220 Y44.360 Z9.361
G1 X9.583 Y44.106 Z9.333
G1 X9.984 Y43.919 Z9.306
G1 X10.412 Y43.804 Z9.278
G1 X10.853 Y43.765 Z9.250
G1 X11.294 Y43.804 Z9.222
G1 X11.722 Y43.919 Z9.194
G1 X12.123 Y44.106 Z9.167
G1 X12.486 Y44.360 Z9.139
G1 X12.799 Y44.673 Z9.111
G1 X13.053 Y45.035 Z9.083
G1 X13.240 Y45.437 Z9.056
G1 X13.354 Y45.864 Z9.028
G1 X13.393 Y46.305 Z9.000
G1 X10.853 Y46.305 Z9.000
G1 X11.635 Y46.439 Z9.000 F1500
G1 X14.806 Y46.422 Z9.000
G1 X17.945 Y45.991 Z9.000
G1 X21.774 Y44.972 Z9.000
G1 X24.929 Y44.686 Z9.000
G1 X25.715 Y44.793 Z9.000
G1 X27.267 Y44.502 Z9.000
G1 X27.984 Y44.844 Z9.000
G1 X29.565 Y44.963 Z9.000
G1 X31.081 Y45.412 Z9.000
G1 X33.521 Y47.437 Z9.000
G1 X36.553 Y48.280 Z9.000
G1 X46.864 Y48.415 Z9.000
G1 X47.634 Y48.221 Z9.000
G1 X48.413 Y48.371 Z9.000
G1 X48.967 Y47.802 Z9.000
G1 X49.348 Y47.106 Z9.000
G1 X49.513 Y46.329 Z9.000
G1 X49.285 Y45.569 Z9.000
G1 X49.397 Y44.783 Z9.000
G1 X48.773 Y42.496 Z9.000
G1 X48.210 Y41.937 Z9.000
G1 X47.336 Y39.741 Z9.000
G1 X46.033 Y34.348 Z9.000
G1 X46.038 Y33.554 Z9.000
G1 X45.105 Y32.274 Z9.000
G1 X44.547 Y30.791 Z9.000
G1 X44.041 Y30.179 Z9.000
G1 X44.287 Y29.425 Z9.000
G1 X44.314 Y28.631 Z9.000
G1 X45.416 Y27.498 Z9.000
G1 X47.709 Y26.880 Z9.000
G1 X48.397 Y27.276 Z9.000
G1 X48.964 Y27.832 Z9.000
G1 X49.887 Y29.121 Z9.000
G1 X49.802 Y36.252 Z9.000
G1 X49.940 Y37.034 Z9.000
G1 X40.486 Y41.014 Z9.000
G1 X39.699 Y40.915 Z9.000
G1 X39.066 Y40.435 Z9.000
G1 X35.876 Y36.903 Z9.000
G1 X35.022 Y35.573 Z9.000
G1 X34.276 Y35.301 Z9.000
G1 X33.530 Y35.573 Z9.000
G1 X31.984 Y35.249 Z9.000
G1 X27.237 Y34.936 Z9.000
G0 X7.678 Y47.893 Z20.000
G0 X7.678 Y47.893 Z11.000
G1 X10.179 Y48.334 Z10.972 F500
G1 X10.065 Y48.762 Z10.944
G1 X9.878 Y49.163 Z10.917
G1 X9.624 Y49.526 Z10.889
G1 X9.311 Y49.839 Z10.861
G1 X8.948 Y50.093 Z10.833
G1 X8.547 Y50.280 Z10.806
G1 X8.119 Y50.394 Z10.778
G1 X7.678 Y50.433 Z10.750
G1 X7.237 Y50.394 Z10.722
G1 X6.809 Y50.280 Z10.694
G1 X6.408 Y50.093 Z10.667
G1 X6.045 Y49.839 Z10.639
G1 X5.732 Y49.526 Z10.611
G1 X5.478 Y49.163 Z10.583
G1 X5.291 Y48.762 Z10.556
G1 X5.176 Y48.334 Z10.528
G1 X5.138 Y47.893 Z10.500
G1 X5.176 Y47.452 Z10.472
G1 X5.291 Y47.024 Z10.444
G1 X5.478 Y46.623 Z10.417
G1 X5.732 Y46.260 Z10.389
G1 X6.045 Y45.947 Z10.361
G1 X6.408 Y45.693 Z10.333
G1 X6.809 Y45.506 Z10.306
G1 X7.237 Y45.391 Z10.278
G1 X7.678 Y45.353 Z10.250
G1 X8.119 Y45.391 Z10.222
G1 X8.547 Y45.506 Z10.194
G1 X8.948 Y45.693 Z10.167
G1 X9.311 Y45.947 Z10.139
G1 X9.624 Y46.260 Z10.111
G1 X9.878 Y46.623 Z10.083
G1 X10.065 Y47.024 Z10.056
G1 X10.179 Y47.452 Z10.028
G1 X10.218 Y47.893 Z10.000
G1 X10.179 Y48.334 Z9.972
G1 X10.065 Y48.762 Z9.944
G1 X9.878 Y49.163 Z9.917
G1 X9.624 Y49.526 Z9.889
G1 X9.311 Y49.839 Z9.861
G1 X8.948 Y50.093 Z9.833
G1 X8.547 Y50.280 Z9.806
G1 X8.119 Y50.394 Z9.778
G1 X7.678 Y50.433 Z9.750
G1 X7.237 Y50.394 Z9.722
G1 X6.809 Y50.280 Z9.694
G1 X6.408 Y50.093 Z9.667
G1 X6.045 Y49.839 Z9.639
G1 X5.732 Y49.526 Z9.611
G1 X5.478 Y49.163 Z9.583
G1 X5.291 Y48.762 Z9.556
G1 X5.176 Y48.334 Z9.528
G1 X5.138 Y47.893 Z9.500
G1 X5.176 Y47.452 Z9.472
G1 X5.291 Y47.024 Z9.444
G1 X5.478 Y46.623 Z9.417
G1 X5.732 Y46.260 Z9.389
G1 X6.045 Y45.947 Z9.361
G1 X6.408 Y45.693 Z9.333
G1 X6.809 Y45.506 Z9.306
G1 X7.237 Y45.391 Z9.278
G1 X7.678 Y45.353 Z9.250
G1 X8.119 Y45.391 Z9.222
G1 X8.547 Y45.506 Z9.194
G1 X8.948 Y45.693 Z9.167
G1 X9.311 Y45.947 Z9.139
G1 X9.624 Y46.260 Z9.111
G1 X9.878 Y46.623 Z9.083
G1 X10.065 Y47.024 Z9.056
G1 X10.179 Y47.452 Z9.028
G1 X10.218 Y47.893 Z9.000
G1 X7.678 Y47.893 Z9.000
G1 X7.016 Y48.331 Z9.000 F1500
G0 X46.307 Y-43.124 Z20.000
G0 X46.307 Y-43.124 Z11.000
G1 X48.808 Y-42.683 Z10.972 F500
G1 X48.694 Y-42.255 Z10.944
G1 X48.507 Y-41.854 Z10.917
G1 X48.253 Y-41.491 Z10.889
G1 X47.940 Y-41.178 Z10.861
G1 X47.577 Y-40.924 Z10.833
G1 X47.176 Y-40.737 Z10.806
G1 X46.748 Y-40.622 Z10.778
G1 X46.307 Y-40.584 Z10.750
G1 X45.866 Y-40.622 Z10.722
G1 X45.438 Y-40.737 Z10.694
G1 X45.037 Y-40.924 Z10.667
G1 X44.674 Y-41.178 Z10.639
G1 X44.361 Y-41.491 Z10.611
G1 X44.107 Y-41.854 Z10.583
G1 X43.920 Y-42.255 Z10.556
G1 X43.806 Y-42.683 Z10.528
G1 X43.767 Y-43.124 Z10.500
G1 X43.806 Y-43.565 Z10.472
G1 X43.920 Y-43.993 Z10.444
G1 X44.107 Y-44.394 Z10.417
G1 X44.361 Y-44.756 Z10.389
G1 X44.674 Y-45.070 Z10.361
G1 X45.037 Y-45.324 Z10.333
G1 X45.438 Y-45.511 Z10.306
G1 X45.866 Y-45.625 Z10.278
G1 X46.307 Y-45.664 Z10.250
G1 X46.748 Y-45.625 Z10.222
G1 X47.176 Y-45.511 Z10.194
G1 X47.577 Y-45.324 Z10.167
G1 X47.940 Y-45.070 Z10.139
G1 X48.253 Y-44.756 Z10.111
G1 X48.507 Y-44.394 Z10.083
G1 X48.694 Y-43.993 Z10.056
G1 X48.808 Y-43.565 Z10.028
G1 X48.847 Y-43.124 Z10.000
G1 X48.808 Y-42.683 Z9.972
G1 X48.694 Y-42.255 Z9.944
G1 X48.507 Y-41.854 Z9.917
G1 X48.253 Y-41.491 Z9.889
G1 X47.940 Y-41.178 Z9.861
G1 X47.577 Y-40.924 Z9.833
G1 X47.176 Y-40.737 Z9.806
G1 X46.748 Y-40.622 Z9.778
G1 X46.307 Y-40.584 Z9.750
G1 X45.866 Y-40.622 Z9.722
G1 X45.438 Y-40.737 Z9.694
G1 X45.037 Y-40.924 Z9.667
G1 X44.674 Y-41.178 Z9.639
G1 X44.361 Y-41.491 Z9.611
G1 X44.107 Y-41.854 Z9.583
G1 X43.920 Y-42.255 Z9.556
G1 X43.806 Y-42.683 Z9.528
G1 X43.767 Y-43.124 Z9.500
G1 X43.806 Y-43.565 Z9.472
G1 X43.920 Y-43.993 Z9.444
G1 X44.107 Y-44.394 Z9.417
G1 X44.361 Y-44.756 Z9.389
G1 X44.674 Y-45.070 Z9.361
G1 X45.037 Y-45.324 Z9.333
G1 X45.438 Y-45.511 Z9.306
G1 X45.866 Y-45.625 Z9.278
G1 X46.307 Y-45.664 Z9.250
G1 X46.748 Y-45.625 Z9.222
G1 X47.176 Y-45.511 Z9.194
G1 X47.577 Y-45.324 Z9.167
G1 X47.940 Y-45.070 Z9.139
G1 X48.253 Y-44.756 Z9.111
G1 X48.507 Y-44.394 Z9.083
G1 X48.694 Y-43.993 Z9.056
G1 X48.808 Y-43.565 Z9.028
G1 X48.847 Y-43.124 Z9.000
G1 X46.307 Y-43.124 Z9.000
G1 X46.934 Y-44.582 Z9.000 F1500
G1 X47.048 Y-45.368 Z9.000
G1 X47.956 Y-46.669 Z9.000
G1 X48.275 Y-48.224 Z9.000
G1 X48.264 Y-49.805 Z9.000
G1 X45.895 Y-49.948 Z9.000
G1 X45.118 Y-49.789 Z9.000
G1 X39.566 Y-49.599 Z9.000
G1 X38.791 Y-49.774 Z9.000
G1 X35.625 Y-49.961 Z9.000
G1 X48.953 Y-38.890 Z9.000
G1 X48.953 Y-38.890 Z6.000
G1 X49.514 Y-39.452 Z6.000
G1 X49.206 Y-44.201 Z6.000
G1 X48.212 Y-45.430 Z6.000
G1 X47.848 Y-46.135 Z6.000
G1 X45.676 Y-48.440 Z6.000
G1 X45.018 Y-48.884 Z6.000
G1 X43.432 Y-48.822 Z6.000
G1 X42.649 Y-48.955 Z6.000
G1 X41.877 Y-48.772 Z6.000
G1 X41.102 Y-48.946 Z6.000
G1 X38.741 Y-48.707 Z6.000
G1 X37.957 Y-48.834 Z6.000
G1 X37.186 Y-48.646 Z6.000
G1 X34.810 Y-48.508 Z6.000
G1 X27.828 Y-47.028 Z6.000
G1 X25.871 Y-45.724 Z6.000
G1 X24.134 Y-44.103 Z6.000
G1 X23.714 Y-43.430 Z6.000
G1 X22.128 Y-41.656 Z6.000
G1 X21.302 Y-40.306 Z6.000
G1 X19.166 Y-37.969 Z6.000
G1 X19.026 Y-37.188 Z6.000
G1 X17.562 Y-34.375 Z6.000
G1 X16.634 Y-33.095 Z6.000
G1 X15.991 Y-31.653 Z6.000
G1 X15.494 Y-29.337 Z6.000
G1 X15.738 Y-28.582 Z6.000
G1 X16.030 Y-23.038 Z6.000
G1 X16.310 Y-22.295 Z6.000
G1 X20.424 Y-16.460 Z6.000
G1 X22.607 Y-14.164 Z6.000
G1 X22.766 Y-13.387 Z6.000
G1 X23.742 Y-12.146 Z6.000
G1 X25.176 Y-9.323 Z6.000
G1 X25.330 Y-8.544 Z6.000
G1 X26.334 Y-7.315 Z6.000
G1 X27.420 Y-5.203 Z6.000
G1 X27.877 Y-3.688 Z6.000
G1 X28.487 Y-0.576 Z6.000
G1 X29.025 Y0.007 Z6.000
G1 X29.666 Y1.459 Z6.000
G1 X31.455 Y4.073 Z6.000
G1 X31.737 Y4.815 Z6.000
G1 X32.289 Y5.384 Z6.000
G1 X33.625 Y7.354 Z6.000
G1 X39.695 Y12.463 Z6.000
G1 X41.766 Y14.860 Z6.000
G1 X42.618 Y16.193 Z6.000
G1 X43.743 Y19.148 Z6.000
G1 X44.522 Y23.035 Z6.000
G1 X45.378 Y25.249 Z6.000
G1 X45.846 Y25.890 Z6.000
G1 X46.521 Y27.326 Z6.000
G1 X47.484 Y28.577 Z6.000
G1 X48.082 Y29.099 Z6.000
G1 X48.713 Y30.554 Z6.000
G1 X48.943 Y31.313 Z6.000
G1 X48.626 Y36.059 Z6.000
G1 X48.141 Y38.382 Z6.000
G1 X47.784 Y39.091 Z6.000
G1 X47.557 Y40.652 Z6.000
G1 X47.166 Y41.344 Z6.000
G1 X46.744 Y42.874 Z6.000
G1 X46.358 Y45.220 Z6.000
G1 X45.625 Y46.626 Z6.000
G1 X45.529 Y47.413 Z6.000
G1 X44.560 Y48.670 Z6.000
G1 X42.244 Y49.211 Z6.000
G1 X41.451 Y49.186 Z6.000
G1 X40.105 Y48.366 Z6.000
G1 X36.154 Y48.085 Z6.000
G1 X35.394 Y47.854 Z6.000
G1 X34.606 Y47.948 Z6.000
G1 X32.363 Y47.175 Z6.000
G1 X31.843 Y46.576 Z6.000
G1 X29.009 Y45.156 Z6.000
G1 X28.230 Y45.006 Z6.000
G1 X26.380 Y43.514 Z6.000
G1 X25.596 Y43.391 Z6.000
G1 X24.328 Y42.451 Z6.000
G1 X22.870 Y41.835 Z6.000
G1 X22.303 Y41.279 Z6.000
G1 X20.936 Y40.473 Z6.000
G1 X19.484 Y39.838 Z6.000
G1 X18.705 Y39.685 Z6.000
G1 X17.436 Y38.734 Z6.000
G1 X15.291 Y37.716 Z6.000
G1 X14.511 Y37.573 Z6.000
G1 X12.544 Y36.244 Z6.000
G1 X8.948 Y34.581 Z6.000
G1 X8.167 Y34.438 Z6.000
G1 X5.711 Y32.432 Z6.000
G1 X4.931 Y32.287 Z6.000
G1 X3.662 Y31.345 Z6.000
G1 X2.888 Y31.167 Z6.000
G1 X0.911 Y29.870 Z6.000
G1 X-4.828 Y27.173 Z6.000
G1 X-5.608 Y27.027 Z6.000
G1 X-8.058 Y25.013 Z6.000
G1 X-8.838 Y24.866 Z6.000
G1 X-13.803 Y22.383 Z6.000
G1 X-14.583 Y22.235 Z6.000
G1 X-17.629 Y19.697 Z6.000
G1 X-19.161 Y17.884 Z6.000
G1 X-19.981 Y16.535 Z6.000
G1 X-20.589 Y16.025 Z6.000
G1 X-22.660 Y13.621 Z6.000
G1 X-22.822 Y12.844 Z6.000
G1 X-23.618 Y11.471 Z6.000
G1 X-23.742 Y10.687 Z6.000
G1 X-24.232 Y10.062 Z6.000
G1 X-25.279 Y7.926 Z6.000
G1 X-26.215 Y6.650 Z6.000
G1 X-26.875 Y5.215 Z6.000
G1 X-27.316 Y3.695 Z6.000
G1 X-29.509 Y1.414 Z6.000
G1 X-31.341 Y-0.097 Z6.000
G1 X-32.702 Y-0.898 Z6.000
G1 X-35.048 Y-3.023 Z6.000
G1 X-36.591 Y-4.830 Z6.000
G1 X-37.339 Y-5.094 Z6.000
G1 X-38.617 Y-6.036 Z6.000
G1 X-40.047 Y-6.707 Z6.000
G1 X-46.000 Y-11.947 Z6.000
G1 X-48.581 Y-14.953 Z6.000
G1 X-48.967 Y-16.491 Z6.000
G1 X-48.480 Y-23.613 Z6.000
G1 X-48.114 Y-25.151 Z6.000
G1 X-47.778 Y-25.870 Z6.000
G1 X-45.641 Y-28.211 Z6.000
G1 X-43.831 Y-29.748 Z6.000
G1 X-43.564 Y-30.496 Z6.000
G1 X-43.079 Y-31.124 Z6.000
G1 X-40.085 Y-33.727 Z6.000
G1 X-39.309 Y-33.892 Z6.000
G1 X-35.798 Y-35.734 Z6.000
G1 X-35.019 Y-35.888 Z6.000
G1 X-34.385 Y-36.366 Z6.000
G1 X-33.594 Y-36.296 Z6.000
G1 X-32.825 Y-36.492 Z6.000
G1 X-31.330 Y-37.016 Z6.000
G1 X-30.662 Y-37.445 Z6.000
G1 X-29.878 Y-37.566 Z6.000
G1 X-27.947 Y-38.944 Z6.000
G1 X-26.226 Y-40.577 Z6.000
G1 X-25.811 Y-41.254 Z6.000
G1 X-24.732 Y-42.417 Z6.000
G1 X-23.935 Y-43.779 Z6.000
G1 X-23.334 Y-44.298 Z6.000
G1 X-21.300 Y-46.733 Z6.000
G1 X-19.489 Y-48.268 Z6.000
G1 X-18.771 Y-48.607 Z6.000
G1 X-15.619 Y-48.914 Z6.000
G1 X-13.250 Y-48.723 Z6.000
G1 X-11.082 Y-47.755 Z6.000
G1 X-10.298 Y-47.629 Z6.000
G1 X-7.254 Y-45.089 Z6.000
G1 X-6.475 Y-44.935 Z6.000
G1 X-3.654 Y-43.486 Z6.000
G1 X-2.875 Y-43.335 Z6.000
G1 X-1.506 Y-42.544 Z6.000
G1 X4.735 Y-41.386 Z6.000
G1 X5.333 Y-40.865 Z6.000
G1 X9.292 Y-40.604 Z6.000
G1 X13.172 Y-39.801 Z6.000
G1 X14.488 Y-40.689 Z6.000
G1 X15.467 Y-41.937 Z6.000
G1 X16.895 Y-46.476 Z6.000
G1 X17.326 Y-47.142 Z6.000
G1 X17.440 Y-47.928 Z6.000
G1 X18.410 Y-49.182 Z6.000
G1 X21.504 Y-49.882 Z6.000
G1 X31.019 Y-49.995 Z6.000
G1 X32.020 Y-40.478 Z6.000
G1 X32.435 Y-36.531 Z6.000
G1 X32.871 Y-35.011 Z6.000
G1 X34.355 Y-31.336 Z6.000
G1 X35.171 Y-29.980 Z6.000
G1 X35.343 Y-29.206 Z6.000
G1 X36.375 Y-28.000 Z6.000
G1 X37.886 Y-25.214 Z6.000
G1 X38.944 Y-22.231 Z6.000
G1 X40.138 Y-21.188 Z6.000
G1 X42.294 Y-18.861 Z6.000
G1 X43.173 Y-17.545 Z6.000
G1 X43.796 Y-17.054 Z6.000
G1 X46.495 Y-14.147 Z6.000
G1 X46.478 Y-13.353 Z6.000
G1 X46.859 Y-12.657 Z6.000
G1 X48.033 Y-11.600 Z6.000
G1 X48.341 Y-9.242 Z6.000
G1 X48.168 Y-3.694 Z6.000
G1 X47.257 Y-0.657 Z6.000
G1 X45.711 Y1.142 Z6.000
G1 X45.055 Y1.590 Z6.000
G1 X43.360 Y3.261 Z6.000
G1 X41.194 Y2.292 Z6.000
G1 X40.578 Y1.791 Z6.000
G1 X40.187 Y1.101 Z6.000
G1 X39.189 Y-1.912 Z6.000
G1 X38.993 Y-5.077 Z6.000
G1 X38.742 Y-5.830 Z6.000
G1 X38.815 Y-6.621 Z6.000
G1 X38.447 Y-11.368 Z6.000
G1 X38.185 Y-12.117 Z6.000
G1 X37.685 Y-12.733 Z6.000
G1 X37.607 Y-13.523 Z6.000
G1 X36.604 Y-14.751 Z6.000
G1 X35.551 Y-16.880 Z6.000
G1 X33.958 Y-18.646 Z6.000
G1 X32.709 Y-19.617 Z6.000
G1 X32.466 Y-20.372 Z6.000
G1 X31.947 Y-20.973 Z6.000
G1 X31.319 Y-22.429 Z6.000
G1 X30.850 Y-23.943 Z6.000
G1 X30.778 Y-24.733 Z6.000
G1 X29.747 Y-25.938 Z6.000
G1 X28.679 Y-28.061 Z6.000
G1 X27.298 Y-29.992 Z6.000
G1 X27.019 Y-30.736 Z6.000
G1 X27.040 Y-31.529 Z6.000
G1 X27.403 Y-32.235 Z6.000
G1 X27.889 Y-35.365 Z6.000
G1 X39.428 Y-38.890 Z6.000
G1 X40.201 Y-38.712 Z6.000
G1 X40.902 Y-38.339 Z6.000
G1 X45.857 Y-32.148 Z6.000
G1 X47.036 Y-31.094 Z6.000
G1 X47.965 Y-29.818 Z6.000
G1 X48.281 Y-29.090 Z6.000
G1 X48.352 Y-26.717 Z6.000
G1 X48.581 Y-25.957 Z6.000
G1 X49.118 Y-22.026 Z6.000
G0 X18.261 Y-7.140 Z20.000
G0 X18.261 Y-7.140 Z8.000
G1 X20.763 Y-6.699 Z7.972 F500
G1 X20.648 Y-6.272 Z7.944
G1 X20.461 Y-5.870 Z7.917
G1 X20.207 Y-5.508 Z7.889
G1 X19.894 Y-5.195 Z7.861
G1 X19.531 Y-4.941 Z7.833
G1 X19.130 Y-4.754 Z7.806
G1 X18.702 Y-4.639 Z7.778
G1 X18.261 Y-4.600 Z7.750
G1 X17.820 Y-4.639 Z7.722
G1 X17.393 Y-4.754 Z7.694
G1 X16.991 Y-4.941 Z7.667
G1 X16.629 Y-5.195 Z7.639
G1 X16.315 Y-5.508 Z7.611
G1 X16.062 Y-5.870 Z7.583
G1 X15.874 Y-6.272 Z7.556
G1 X15.760 Y-6.699 Z7.528
G1 X15.721 Y-7.140 Z7.500
G1 X15.760 Y-7.582 Z7.472
G1 X15.874 Y-8.009 Z7.444
G1 X16.062 Y-8.410 Z7.417
G1 X16.315 Y-8.773 Z7.389
G1 X16.629 Y-9.086 Z7.361
G1 X16.991 Y-9.340 Z7.333
G1 X17.393 Y-9.527 Z7.306
G1 X17.820 Y-9.642 Z7.278
G1 X18.261 Y-9.680 Z7.250
G1 X18.702 Y-9.642 Z7.222
G1 X19.130 Y-9.527 Z7.194
G1 X19.531 Y-9.340 Z7.167
G1 X19.894 Y-9.086 Z7.139
G1 X20.207 Y-8.773 Z7.111
G1 X20.461 Y-8.410 Z7.083
G1 X20.648 Y-8.009 Z7.056
G1 X20.763 Y-7.582 Z7.028
G1 X20.801 Y-7.140 Z7.000
G1 X20.763 Y-6.699 Z6.972
G1 X20.648 Y-6.272 Z6.944
G1 X20.461 Y-5.870 Z6.917
G1 X20.207 Y-5.508 Z6.889
G1 X19.894 Y-5.195 Z6.861
G1 X19.531 Y-4.941 Z6.833
G1 X19.130 Y-4.754 Z6.806
G1 X18.702 Y-4.639 Z6.778
G1 X18.261 Y-4.600 Z6.750
G1 X17.820 Y-4.639 Z6.722
G1 X17.393 Y-4.754 Z6.694
G1 X16.991 Y-4.941 Z6.667
G1 X16.629 Y-5.195 Z6.639
G1 X16.315 Y-5.508 Z6.611
G1 X16.062 Y-5.870 Z6.583
G1 X15.874 Y-6.272 Z6.556
G1 X15.760 Y-6.699 Z6.528
G1 X15.721 Y-7.140 Z6.500
G1 X15.760 Y-7.582 Z6.472
G1 X15.874 Y-8.009 Z6.444
G1 X16.062 Y-8.410 Z6.417
G1 X16.315 Y-8.773 Z6.389
G1 X16.629 Y-9.086 Z6.361
G1 X16.991 Y-9.340 Z6.333
G1 X17.393 Y-9.527 Z6.306
G1 X17.820 Y-9.642 Z6.278
G1 X18.261 Y-9.680 Z6.250
G1 X18.702 Y-9.642 Z6.222
G1 X19.130 Y-9.527 Z6.194
G1 X19.531 Y-9.340 Z6.167
G1 X19.894 Y-9.086 Z6.139
G1 X20.207 Y-8.773 Z6.111
G1 X20.461 Y-8.410 Z6.083
G1 X20.648 Y-8.009 Z6.056
G1 X20.763 Y-7.582 Z6.028
G1 X20.801 Y-7.140 Z6.000
G1 X18.261 Y-7.140 Z6.000
G1 X16.831 Y-6.451 Z6.000 F1500
G1 X15.309 Y-6.021 Z6.000
G1 X9.064 Y-4.904 Z6.000
G1 X7.483 Y-4.884 Z6.000
G1 X6.703 Y-5.033 Z6.000
G1 X4.459 Y-5.823 Z6.000
G1 X2.510 Y-7.183 Z6.000
G1 X0.369 Y-8.209 Z6.000
G1 X-0.411 Y-8.355 Z6.000
G1 X-4.298 Y-11.094 Z6.000
G1 X-4.811 Y-11.700 Z6.000
G1 X-5.091 Y-12.442 Z6.000
G1 X-7.177 Y-14.823 Z6.000
G1 X-7.842 Y-15.256 Z6.000
G1 X-10.177 Y-17.405 Z6.000
G1 X-12.309 Y-18.454 Z6.000
G1 X-13.829 Y-18.893 Z6.000
G1 X-14.472 Y-19.358 Z6.000
G1 X-15.259 Y-19.464 Z6.000
G1 X-16.735 Y-20.048 Z6.000
G1 X-21.670 Y-22.593 Z6.000
G1 X-22.938 Y-23.539 Z6.000
G1 X-24.373 Y-24.195 Z6.000
G1 X-25.150 Y-24.360 Z6.000
G1 X-26.510 Y-25.168 Z6.000
G1 X-28.507 Y-27.628 Z6.000
G1 X-29.254 Y-27.896 Z6.000
G1 X-30.039 Y-28.015 Z6.000
G1 X-30.790 Y-27.760 Z6.000
G1 X-32.204 Y-27.038 Z6.000
G1 X-34.167 Y-25.698 Z6.000
G1 X-34.314 Y-24.918 Z6.000
G1 X-35.332 Y-23.702 Z6.000
G1 X-35.541 Y-22.936 Z6.000
G1 X-36.332 Y-21.561 Z6.000
G1 X-36.471 Y-20.780 Z6.000
G1 X-37.872 Y-18.864 Z6.000
G1 X-38.159 Y-18.124 Z6.000
G1 X-38.165 Y-17.330 Z6.000
G1 X-37.795 Y-16.628 Z6.000
G1 X-37.215 Y-16.087 Z6.000
G1 X-35.890 Y-15.212 Z6.000
G1 X-34.319 Y-14.989 Z6.000
G1 X-32.841 Y-14.427 Z6.000
G1 X-31.277 Y-14.678 Z6.000
G1 X-22.765 Y-12.755 Z6.000
G1 X-21.301 Y-12.157 Z6.000
G1 X-19.929 Y-11.365 Z6.000
G1 X-19.150 Y-11.217 Z6.000
G1 X-18.529 Y-10.722 Z6.000
G1 X-16.400 Y-9.660 Z6.000
G1 X-15.806 Y-9.134 Z6.000
G1 X-15.046 Y-8.902 Z6.000
G1 X-13.662 Y-8.125 Z6.000
G1 X-12.881 Y-7.985 Z6.000
G1 X-10.965 Y-6.584 Z6.000
G1 X-8.836 Y-5.531 Z6.000
G1 X-8.057 Y-5.375 Z6.000
G1 X-5.671 Y-3.285 Z6.000
G1 X-4.895 Y-3.117 Z6.000
G1 X-3.534 Y-2.302 Z6.000
G1 X-2.751 Y-2.168 Z6.000
G1 X-2.133 Y-1.670 Z6.000
G1 X2.106 Y0.496 Z6.000
G1 X3.844 Y2.118 Z6.000
G1 X5.168 Y2.982 Z6.000
G1 X8.632 Y6.238 Z6.000
G1 X10.113 Y8.093 Z6.000
G1 X10.430 Y8.821 Z6.000
G1 X11.331 Y10.128 Z6.000
G1 X12.024 Y10.514 Z6.000
G1 X13.138 Y11.645 Z6.000
G1 X13.593 Y12.295 Z6.000
G1 X13.749 Y13.074 Z6.000
G1 X15.042 Y15.060 Z6.000
G1 X15.671 Y16.510 Z6.000
G1 X15.807 Y17.292 Z6.000
G1 X16.881 Y19.407 Z6.000
G1 X19.478 Y22.403 Z6.000
G1 X19.607 Y23.186 Z6.000
G1 X20.009 Y23.870 Z6.000
G1 X20.407 Y25.405 Z6.000
G1 X21.014 Y25.917 Z6.000
G1 X21.582 Y27.393 Z6.000
G1 X22.149 Y27.948 Z6.000
G1 X23.142 Y30.094 Z6.000
G1 X23.791 Y30.551 Z6.000
G1 X24.227 Y31.215 Z6.000
G1 X25.576 Y32.044 Z6.000
G1 X26.358 Y32.180 Z6.000
G1 X27.824 Y32.787 Z6.000
G1 X29.761 Y34.161 Z6.000
G1 X34.002 Y36.311 Z6.000
G1 X35.509 Y36.789 Z6.000
G1 X36.299 Y36.870 Z6.000
G1 X37.061 Y36.647 Z6.000
G1 X38.646 Y36.676 Z6.000
G1 X39.398 Y35.279 Z6.000
G1 X39.634 Y34.521 Z6.000
G1 X38.746 Y32.312 Z6.000
G1 X37.132 Y30.574 Z6.000
G1 X35.853 Y29.641 Z6.000
G1 X34.444 Y28.919 Z6.000
G1 X34.065 Y28.221 Z6.000
G1 X28.956 Y23.237 Z6.000
G1 X27.036 Y21.840 Z6.000
G1 X23.709 Y18.439 Z6.000
G1 X23.231 Y16.927 Z6.000
G1 X21.241 Y13.500 Z6.000
G1 X20.705 Y12.013 Z6.000
G1 X20.141 Y9.705 Z6.000
G1 X19.593 Y9.131 Z6.000
G1 X18.115 Y5.463 Z6.000
G1 X16.643 Y3.597 Z6.000
G1 X15.463 Y2.543 Z6.000
G1 X14.299 Y0.468 Z6.000
G1 X13.535 Y0.254 Z6.000
G1 X5.604 Y0.289 Z6.000
G1 X-1.318 Y7.147 Z6.000
G1 X-7.520 Y13.293 Z6.000
G1 X-8.314 Y13.289 Z6.000
G1 X-9.001 Y13.687 Z6.000
G1 X-9.746 Y13.415 Z6.000
G1 X-10.934 Y12.362 Z6.000
G1 X-12.097 Y9.431 Z6.000
G1 X-12.170 Y8.640 Z6.000
G1 X-13.064 Y7.329 Z6.000
G1 X-14.588 Y4.547 Z6.000
G1 X-15.125 Y3.059 Z6.000
G1 X-25.122 Y-4.763 Z6.000
G1 X-35.185 Y6.089 Z6.000
G1 X-37.883 Y8.999 Z6.000
G1 X-42.809 Y12.995 Z6.000
G1 X-45.453 Y15.945 Z6.000
G1 X-46.308 Y17.275 Z6.000
G1 X-46.597 Y18.014 Z6.000
G1 X-47.147 Y18.586 Z6.000
G1 X-47.410 Y19.335 Z6.000
G1 X-47.953 Y19.914 Z6.000
G1 X-48.231 Y20.658 Z6.000
G1 X-48.768 Y21.242 Z6.000
G1 X-48.844 Y22.032 Z6.000
G1 X-48.538 Y28.372 Z6.000
G1 X-48.078 Y30.701 Z6.000
G1 X-47.534 Y32.183 Z6.000
G1 X-46.137 Y35.028 Z6.000
G1 X-45.741 Y36.559 Z6.000
G1 X-45.546 Y38.131 Z6.000
G1 X-45.195 Y38.843 Z6.000
G1 X-44.524 Y41.126 Z6.000
G1 X-42.425 Y43.499 Z6.000
G1 X-42.289 Y44.281 Z6.000
G1 X-40.898 Y47.132 Z6.000
G1 X-39.833 Y48.308 Z6.000
G1 X-38.257 Y48.489 Z6.000
G1 X-37.477 Y48.343 Z6.000
G1 X-27.960 Y48.001 Z6.000
G1 X-25.630 Y47.541 Z6.000
G1 X-22.770 Y46.171 Z6.000
G1 X-21.595 Y45.104 Z6.000
G1 X-20.807 Y45.011 Z6.000
G1 X-19.536 Y44.075 Z6.000
G1 X-18.758 Y43.915 Z6.000
G1 X-18.058 Y43.541 Z6.000
G1 X-13.830 Y39.939 Z6.000
G1 X-12.364 Y39.334 Z6.000
G1 X-10.800 Y39.090 Z6.000
G1 X-7.239 Y37.350 Z6.000
G1 X-6.456 Y37.224 Z6.000
G1 X-5.673 Y37.357 Z6.000
G1 X-4.201 Y37.951 Z6.000
G1 X-2.494 Y39.603 Z6.000
G1 X-1.552 Y40.871 Z6.000
G1 X1.804 Y46.256 Z6.000
G1 X2.409 Y47.718 Z6.000
G1 X3.066 Y48.163 Z6.000
G1 X3.844 Y48.321 Z6.000
G1 X7.799 Y48.069 Z6.000
G1 X11.690 Y47.317 Z6.000
G1 X13.125 Y47.982 Z6.000
G1 X15.376 Y48.744 Z6.000
G1 X16.168 Y48.795 Z6.000
G1 X20.807 Y49.866 Z6.000
G1 X22.386 Y49.980 Z6.000
G0 X14.028 Y28.843 Z20.000
G0 X14.028 Y28.843 Z8.000
G1 X16.529 Y29.284 Z7.972 F500
G1 X16.415 Y29.712 Z7.944
G1 X16.228 Y30.113 Z7.917
G1 X15.974 Y30.476 Z7.889
G1 X15.661 Y30.789 Z7.861
G1 X15.298 Y31.043 Z7.833
G1 X14.897 Y31.230 Z7.806
G1 X14.469 Y31.344 Z7.778
G1 X14.028 Y31.383 Z7.750
G1 X13.587 Y31.344 Z7.722
G1 X13.159 Y31.230 Z7.694
G1 X12.758 Y31.043 Z7.667
G1 X12.395 Y30.789 Z7.639
G1 X12.082 Y30.476 Z7.611
G1 X11.828 Y30.113 Z7.583
G1 X11.641 Y29.712 Z7.556
G1 X11.526 Y29.284 Z7.528
G1 X11.488 Y28.843 Z7.500
G1 X11.526 Y28.402 Z7.472
G1 X11.641 Y27.974 Z7.444
G1 X11.828 Y27.573 Z7.417
G1 X12.082 Y27.210 Z7.389
G1 X12.395 Y26.897 Z7.361
G1 X12.758 Y26.643 Z7.333
G1 X13.159 Y26.456 Z7.306
G1 X13.587 Y26.341 Z7.278
G1 X14.028 Y26.303 Z7.250
G1 X14.469 Y26.341 Z7.222
G1 X14.897 Y26.456 Z7.194
G1 X15.298 Y26.643 Z7.167
G1 X15.661 Y26.897 Z7.139
G1 X15.974 Y27.210 Z7.111
G1 X16.228 Y27.573 Z7.083
G1 X16.415 Y27.974 Z7.056
G1 X16.529 Y28.402 Z7.028
G1 X16.568 Y28.843 Z7.000
G1 X16.529 Y29.284 Z6.972
G1 X16.415 Y29.712 Z6.944
G1 X16.228 Y30.113 Z6.917
G1 X15.974 Y30.476 Z6.889
G1 X15.661 Y30.789 Z6.861
G1 X15.298 Y31.043 Z6.833
G1 X14.897 Y31.230 Z6.806
G1 X14.469 Y31.344 Z6.778
G1 X14.028 Y31.383 Z6.750
G1 X13.587 Y31.344 Z6.722
G1 X13.159 Y31.230 Z6.694
G1 X12.758 Y31.043 Z6.667
G1 X12.395 Y30.789 Z6.639
G1 X12.082 Y30.476 Z6.611
G1 X11.828 Y30.113 Z6.583
G1 X11.641 Y29.712 Z6.556
G1 X11.526 Y29.284 Z6.528
G1 X11.488 Y28.843 Z6.500
G1 X11.526 Y28.402 Z6.472
G1 X11.641 Y27.974 Z6.444
G1 X11.828 Y27.573 Z6.417
G1 X12.082 Y27.210 Z6.389
G1 X12.395 Y26.897 Z6.361
G1 X12.758 Y26.643 Z6.333
G1 X13.159 Y26.456 Z6.306
G1 X13.587 Y26.341 Z6.278
G1 X14.028 Y26.303 Z6.250
G1 X14.469 Y26.341 Z6.222
G1 X14.897 Y26.456 Z6.194
G1 X15.298 Y26.643 Z6.167
G1 X15.661 Y26.897 Z6.139
G1 X15.974 Y27.210 Z6.111
G1 X16.228 Y27.573 Z6.083
G1 X16.415 Y27.974 Z6.056
G1 X16.529 Y28.402 Z6.028
G1 X16.568 Y28.843 Z6.000
G1 X14.028 Y28.843 Z6.000
G1 X10.717 Y24.381 Z6.000 F1500
G1 X7.586 Y21.949 Z6.000
G1 X5.522 Y20.773 Z6.000
G1 X4.319 Y19.743 Z6.000
G1 X2.168 Y17.415 Z6.000
G1 X2.175 Y16.621 Z6.000
G1 X2.386 Y15.856 Z6.000
G1 X3.043 Y14.413 Z6.000
G1 X3.515 Y13.775 Z6.000
G1 X4.276 Y13.549 Z6.000
G1 X5.022 Y13.820 Z6.000
G1 X5.815 Y13.797 Z6.000
G1 X6.423 Y14.307 Z6.000
G1 X7.921 Y14.834 Z6.000
G1 X9.241 Y15.694 Z6.000
G0 X29.903 Y14.026 Z20.000
G0 X29.903 Y14.026 Z8.000
G1 X32.404 Y14.467 Z7.972 F500
G1 X32.290 Y14.895 Z7.944
G1 X32.103 Y15.296 Z7.917
G1 X31.849 Y15.659 Z7.889
G1 X31.536 Y15.972 Z7.861
G1 X31.173 Y16.226 Z7.833
G1 X30.772 Y16.413 Z7.806
G1 X30.344 Y16.528 Z7.778
G1 X29.903 Y16.566 Z7.750
G1 X29.462 Y16.528 Z7.722
G1 X29.034 Y16.413 Z7.694
G1 X28.633 Y16.226 Z7.667
G1 X28.270 Y15.972 Z7.639
G1 X27.957 Y15.659 Z7.611
G1 X27.703 Y15.296 Z7.583
G1 X27.516 Y14.895 Z7.556
G1 X27.401 Y14.467 Z7.528
G1 X27.363 Y14.026 Z7.500
G1 X27.401 Y13.585 Z7.472
G1 X27.516 Y13.157 Z7.444
G1 X27.703 Y12.756 Z7.417
G1 X27.957 Y12.394 Z7.389
G1 X28.270 Y12.080 Z7.361
G1 X28.633 Y11.826 Z7.333
G1 X29.034 Y11.639 Z7.306
G1 X29.462 Y11.525 Z7.278
G1 X29.903 Y11.486 Z7.250
G1 X30.344 Y11.525 Z7.222
G1 X30.772 Y11.639 Z7.194
G1 X31.173 Y11.826 Z7.167
G1 X31.536 Y12.080 Z7.139
G1 X31.849 Y12.394 Z7.111
G1 X32.103 Y12.756 Z7.083
G1 X32.290 Y13.157 Z7.056
G1 X32.404 Y13.585 Z7.028
G1 X32.443 Y14.026 Z7.000
G1 X32.404 Y14.467 Z6.972
G1 X32.290 Y14.895 Z6.944
G1 X32.103 Y15.296 Z6.917
G1 X31.849 Y15.659 Z6.889
G1 X31.536 Y15.972 Z6.861
G1 X31.173 Y16.226 Z6.833
G1 X30.772 Y16.413 Z6.806
G1 X30.344 Y16.528 Z6.778
G1 X29.903 Y16.566 Z6.750
G1 X29.462 Y16.528 Z6.722
G1 X29.034 Y16.413 Z6.694
G1 X28.633 Y16.226 Z6.667
G1 X28.270 Y15.972 Z6.639
G1 X27.957 Y15.659 Z6.611
G1 X27.703 Y15.296 Z6.583
G1 X27.516 Y14.895 Z6.556
G1 X27.401 Y14.467 Z6.528
G1 X27.363 Y14.026 Z6.500
G1 X27.401 Y13.585 Z6.472
G1 X27.516 Y13.157 Z6.444
G1 X27.703 Y12.756 Z6.417
G1 X27.957 Y12.394 Z6.389
G1 X28.270 Y12.080 Z6.361
G1 X28.633 Y11.826 Z6.333
G1 X29.034 Y11.639 Z6.306
G1 X29.462 Y11.525 Z6.278
G1 X29.903 Y11.486 Z6.250
G1 X30.344 Y11.525 Z6.222
G1 X30.772 Y11.639 Z6.194
G1 X31.173 Y11.826 Z6.167
G1 X31.536 Y12.080 Z6.139
G1 X31.849 Y12.394 Z6.111
G1 X32.103 Y12.756 Z6.083
G1 X32.290 Y13.157 Z6.056
G1 X32.404 Y13.585 Z6.028
G1 X32.443 Y14.026 Z6.000
G1 X29.903 Y14.026 Z6.000
G1 X31.488 Y13.962 Z6.000 F1500
G1 X33.846 Y14.245 Z6.000
G1 X38.049 Y17.873 Z6.000
G1 X50.011 Y15.614 Z6.000
G1 X49.322 Y11.705 Z6.000
G0 X13.499 Y-13.490 Z20.000
G0 X13.499 Y-13.490 Z8.000
G1 X16.000 Y-13.049 Z7.972 F500
G1 X15.886 Y-12.622 Z7.944
G1 X15.698 Y-12.220 Z7.917
G1 X15.444 Y-11.858 Z7.889
G1 X15.131 Y-11.545 Z7.861
G1 X14.769 Y-11.291 Z7.833
G1 X14.367 Y-11.104 Z7.806
G1 X13.940 Y-10.989 Z7.778
G1 X13.499 Y-10.950 Z7.750
G1 X13.058 Y-10.989 Z7.722
G1 X12.630 Y-11.104 Z7.694
G1 X12.229 Y-11.291 Z7.667
G1 X11.866 Y-11.545 Z7.639
G1 X11.553 Y-11.858 Z7.611
G1 X11.299 Y-12.220 Z7.583
G1 X11.112 Y-12.622 Z7.556
G1 X10.997 Y-13.049 Z7.528
G1 X10.959 Y-13.490 Z7.500
G1 X10.997 Y-13.932 Z7.472
G1 X11.112 Y-14.359 Z7.444
G1 X11.299 Y-14.760 Z7.417
G1 X11.553 Y-15.123 Z7.389
G1 X11.866 Y-15.436 Z7.361
G1 X12.229 Y-15.690 Z7.333
G1 X12.630 Y-15.877 Z7.306
G1 X13.058 Y-15.992 Z7.278
G1 X13.499 Y-16.030 Z7.250
G1 X13.940 Y-15.992 Z7.222
G1 X14.367 Y-15.877 Z7.194
G1 X14.769 Y-15.690 Z7.167
G1 X15.131 Y-15.436 Z7.139
G1 X15.444 Y-15.123 Z7.111
G1 X15.698 Y-14.760 Z7.083
G1 X15.886 Y-14.359 Z7.056
G1 X16.000 Y-13.932 Z7.028
G1 X16.039 Y-13.490 Z7.000
G1 X16.000 Y-13.049 Z6.972
G1 X15.886 Y-12.622 Z6.944
G1 X15.698 Y-12.220 Z6.917
G1 X15.444 Y-11.858 Z6.889
G1 X15.131 Y-11.545 Z6.861
G1 X14.769 Y-11.291 Z6.833
G1 X14.367 Y-11.104 Z6.806
G1 X13.940 Y-10.989 Z6.778
G1 X13.499 Y-10.950 Z6.750
G1 X13.058 Y-10.989 Z6.722
G1 X12.630 Y-11.104 Z6.694
G1 X12.229 Y-11.291 Z6.667
G1 X11.866 Y-11.545 Z6.639
G1 X11.553 Y-11.858 Z6.611
G1 X11.299 Y-12.220 Z6.583
G1 X11.112 Y-12.622 Z6.556
G1 X10.997 Y-13.049 Z6.528
G1 X10.959 Y-13.490 Z6.500
G1 X10.997 Y-13.932 Z6.472
G1 X11.112 Y-14.359 Z6.444
G1 X11.299 Y-14.760 Z6.417
G1 X11.553 Y-15.123 Z6.389
G1 X11.866 Y-15.436 Z6.361
G1 X12.229 Y-15.690 Z6.333
G1 X12.630 Y-15.877 Z6.306
G1 X13.058 Y-15.992 Z6.278
G1 X13.499 Y-16.030 Z6.250
G1 X13.940 Y-15.992 Z6.222
G1 X14.367 Y-15.877 Z6.194
G1 X14.769 Y-15.690 Z6.167
G1 X15.131 Y-15.436 Z6.139
G1 X15.444 Y-15.123 Z6.111
G1 X15.698 Y-14.760 Z6.083
G1 X15.886 Y-14.359 Z6.056
G1 X16.000 Y-13.932 Z6.028
G1 X16.039 Y-13.490 Z6.000
G1 X13.499 Y-13.490 Z6.000
G1 X11.551 Y-14.860 Z6.000 F1500
G1 X10.119 Y-15.532 Z6.000
G1 X7.797 Y-16.029 Z6.000
G1 X5.142 Y-17.750 Z6.000
G1 X3.014 Y-18.801 Z6.000
G1 X0.467 Y-21.811 Z6.000
G1 X0.149 Y-22.539 Z6.000
G1 X-2.435 Y-26.538 Z6.000
G1 X-3.041 Y-27.999 Z6.000
G1 X-3.559 Y-28.600 Z6.000
G1 X-5.646 Y-31.974 Z6.000
G1 X-6.250 Y-33.436 Z6.000
G1 X-7.500 Y-34.408 Z6.000
G1 X-8.294 Y-34.424 Z6.000
G1 X-9.008 Y-34.769 Z6.000
G1 X-12.117 Y-35.402 Z6.000
G1 X-13.574 Y-36.017 Z6.000
G1 X-14.231 Y-36.462 Z6.000
G1 X-15.503 Y-37.402 Z6.000
G1 X-16.603 Y-38.539 Z6.000
G1 X-17.397 Y-38.539 Z6.000
G1 X-18.142 Y-38.268 Z6.000
G1 X-18.765 Y-37.776 Z6.000
G1 X-19.108 Y-37.060 Z6.000
G1 X-20.138 Y-34.057 Z6.000
G1 X-19.788 Y-33.345 Z6.000
G1 X-19.276 Y-32.738 Z6.000
G1 X-18.580 Y-32.356 Z6.000
G1 X-16.842 Y-30.735 Z6.000
G1 X-16.069 Y-30.556 Z6.000
G1 X-14.692 Y-29.767 Z6.000
G1 X-10.840 Y-28.903 Z6.000
G1 X-10.235 Y-28.390 Z6.000
G1 X-4.536 Y-25.597 Z6.000
G1 X-2.125 Y-23.532 Z6.000
G1 X4.503 Y-30.424 Z6.000
G1 X6.028 Y-30.865 Z6.000
G1 X8.186 Y-28.580 Z6.000
G1 X8.980 Y-27.205 Z6.000
G0 X8.736 Y-47.886 Z20.000
G0 X8.736 Y-47.886 Z8.000
G1 X11.238 Y-47.445 Z7.972 F500
G1 X11.123 Y-47.018 Z7.944
G1 X10.936 Y-46.616 Z7.917
G1 X10.682 Y-46.254 Z7.889
G1 X10.369 Y-45.941 Z7.861
G1 X10.006 Y-45.687 Z7.833
G1 X9.605 Y-45.499 Z7.806
G1 X9.177 Y-45.385 Z7.778
G1 X8.736 Y-45.346 Z7.750
G1 X8.295 Y-45.385 Z7.722
G1 X7.868 Y-45.499 Z7.694
G1 X7.466 Y-45.687 Z7.667
G1 X7.104 Y-45.941 Z7.639
G1 X6.790 Y-46.254 Z7.611
G1 X6.537 Y-46.616 Z7.583
G1 X6.349 Y-47.018 Z7.556
G1 X6.235 Y-47.445 Z7.528
G1 X6.196 Y-47.886 Z7.500
G1 X6.235 Y-48.327 Z7.472
G1 X6.349 Y-48.755 Z7.444
G1 X6.537 Y-49.156 Z7.417
G1 X6.790 Y-49.519 Z7.389
G1 X7.104 Y-49.832 Z7.361
G1 X7.466 Y-50.086 Z7.333
G1 X7.868 Y-50.273 Z7.306
G1 X8.295 Y-50.388 Z7.278
G1 X8.736 Y-50.426 Z7.250
G1 X9.177 Y-50.388 Z7.222
G1 X9.605 Y-50.273 Z7.194
G1 X10.006 Y-50.086 Z7.167
G1 X10.369 Y-49.832 Z7.139
G1 X10.682 Y-49.519 Z7.111
G1 X10.936 Y-49.156 Z7.083
G1 X11.123 Y-48.755 Z7.056
G1 X11.238 Y-48.327 Z7.028
G1 X11.276 Y-47.886 Z7.000
G1 X11.238 Y-47.445 Z6.972
G1 X11.123 Y-47.018 Z6.944
G1 X10.936 Y-46.616 Z6.917
G1 X10.682 Y-46.254 Z6.889
G1 X10.369 Y-45.941 Z6.861
G1 X10.006 Y-45.687 Z6.833
G1 X9.605 Y-45.499 Z6.806
G1 X9.177 Y-45.385 Z6.778
G1 X8.736 Y-45.346 Z6.750
G1 X8.295 Y-45.385 Z6.722
G1 X7.868 Y-45.499 Z6.694
G1 X7.466 Y-45.687 Z6.667
G1 X7.104 Y-45.941 Z6.639
G1 X6.790 Y-46.254 Z6.611
G1 X6.537 Y-46.616 Z6.583
G1 X6.349 Y-47.018 Z6.556
G1 X6.235 Y-47.445 Z6.528
G1 X6.196 Y-47.886 Z6.500
G1 X6.235 Y-48.327 Z6.472
G1 X6.349 Y-48.755 Z6.444
G1 X6.537 Y-49.156 Z6.417
G1 X6.790 Y-49.519 Z6.389
G1 X7.104 Y-49.832 Z6.361
G1 X7.466 Y-50.086 Z6.333
G1 X7.868 Y-50.273 Z6.306
G1 X8.295 Y-50.388 Z6.278
G1 X8.736 Y-50.426 Z6.250
G1 X9.177 Y-50.388 Z6.222
G1 X9.605 Y-50.273 Z6.194
G1 X10.006 Y-50.086 Z6.167
G1 X10.369 Y-49.832 Z6.139
G1 X10.682 Y-49.519 Z6.111
G1 X10.936 Y-49.156 Z6.083
G1 X11.123 Y-48.755 Z6.056
G1 X11.238 Y-48.327 Z6.028
G1 X11.276 Y-47.886 Z6.000
G1 X8.736 Y-47.886 Z6.000
G1 X8.522 Y-48.651 Z6.000 F1500
G1 X8.117 Y-49.333 Z6.000
G1 X7.481 Y-49.809 Z6.000
G1 X6.705 Y-49.972 Z6.000
G1 X-1.219 Y-49.627 Z6.000
G0 X-33.597 Y-44.711 Z20.000
G0 X-33.597 Y-44.711 Z8.000
G1 X-31.096 Y-44.270 Z7.972 F500
G1 X-31.210 Y-43.843 Z7.944
G1 X-31.397 Y-43.441 Z7.917
G1 X-31.651 Y-43.079 Z7.889
G1 X-31.964 Y-42.766 Z7.861
G1 X-32.327 Y-42.512 Z7.833
G1 X-32.728 Y-42.324 Z7.806
G1 X-33.156 Y-42.210 Z7.778
G1 X-33.597 Y-42.171 Z7.750
G1 X-34.038 Y-42.210 Z7.722
G1 X-34.466 Y-42.324 Z7.694
G1 X-34.867 Y-42.512 Z7.667
G1 X-35.230 Y-42.766 Z7.639
G1 X-35.543 Y-43.079 Z7.611
G1 X-35.797 Y-43.441 Z7.583
G1 X-35.984 Y-43.843 Z7.556
G1 X-36.099 Y-44.270 Z7.528
G1 X-36.137 Y-44.711 Z7.500
G1 X-36.099 Y-45.152 Z7.472
G1 X-35.984 Y-45.580 Z7.444
G1 X-35.797 Y-45.981 Z7.417
G1 X-35.543 Y-46.344 Z7.389
G1 X-35.230 Y-46.657 Z7.361
G1 X-34.867 Y-46.911 Z7.333
G1 X-34.466 Y-47.098 Z7.306
G1 X-34.038 Y-47.213 Z7.278
G1 X-33.597 Y-47.251 Z7.250
G1 X-33.156 Y-47.213 Z7.222
G1 X-32.728 Y-47.098 Z7.194
G1 X-32.327 Y-46.911 Z7.167
G1 X-31.964 Y-46.657 Z7.139
G1 X-31.651 Y-46.344 Z7.111
G1 X-31.397 Y-45.981 Z7.083
G1 X-31.210 Y-45.580 Z7.056
G1 X-31.096 Y-45.152 Z7.028
G1 X-31.057 Y-44.711 Z7.000
G1 X-31.096 Y-44.270 Z6.972
G1 X-31.210 Y-43.843 Z6.944
G1 X-31.397 Y-43.441 Z6.917
G1 X-31.651 Y-43.079 Z6.889
G1 X-31.964 Y-42.766 Z6.861
G1 X-32.327 Y-42.512 Z6.833
G1 X-32.728 Y-42.324 Z6.806
G1 X-33.156 Y-42.210 Z6.778
G1 X-33.597 Y-42.171 Z6.750
G1 X-34.038 Y-42.210 Z6.722
G1 X-34.466 Y-42.324 Z6.694
G1 X-34.867 Y-42.512 Z6.667
G1 X-35.230 Y-42.766 Z6.639
G1 X-35.543 Y-43.079 Z6.611
G1 X-35.797 Y-43.441 Z6.583
G1 X-35.984 Y-43.843 Z6.556
G1 X-36.099 Y-44.270 Z6.528
G1 X-36.137 Y-44.711 Z6.500
G1 X-36.099 Y-45.152 Z6.472
G1 X-35.984 Y-45.580 Z6.444
G1 X-35.797 Y-45.981 Z6.417
G1 X-35.543 Y-46.344 Z6.389
G1 X-35.230 Y-46.657 Z6.361
G1 X-34.867 Y-46.911 Z6.333
G1 X-34.466 Y-47.098 Z6.306
G1 X-34.038 Y-47.213 Z6.278
G1 X-33.597 Y-47.251 Z6.250
G1 X-33.156 Y-47.213 Z6.222
G1 X-32.728 Y-47.098 Z6.194
G1 X-32.327 Y-46.911 Z6.167
G1 X-31.964 Y-46.657 Z6.139
G1 X-31.651 Y-46.344 Z6.111
G1 X-31.397 Y-45.981 Z6.083
G1 X-31.210 Y-45.580 Z6.056
G1 X-31.096 Y-45.152 Z6.028
G1 X-31.057 Y-44.711 Z6.000
G1 X-33.597 Y-44.711 Z6.000
G1 X-36.554 Y-45.868 Z6.000 F1500
G1 X-39.647 Y-46.553 Z6.000
G1 X-41.833 Y-47.477 Z6.000
G1 X-44.151 Y-48.001 Z6.000
G1 X-44.909 Y-47.766 Z6.000
G1 X-46.465 Y-48.043 Z6.000
G1 X-48.801 Y-47.621 Z6.000
G1 X-49.519 Y-47.282 Z6.000
G1 X-49.928 Y-46.602 Z6.000
G1 X-49.773 Y-45.026 Z6.000
G1 X-49.456 Y-44.299 Z6.000
G1 X-48.734 Y-41.208 Z6.000
G1 X-48.353 Y-40.512 Z6.000
G1 X-48.295 Y-39.720 Z6.000
G1 X-49.876 Y-34.405 Z6.000
G0 X-44.710 Y-0.790 Z20.000
G0 X-44.710 Y-0.790 Z8.000
G1 X-42.208 Y-0.349 Z7.972 F500
G1 X-42.323 Y0.078 Z7.944
G1 X-42.510 Y0.480 Z7.917
G1 X-42.764 Y0.842 Z7.889
G1 X-43.077 Y1.155 Z7.861
G1 X-43.440 Y1.409 Z7.833
G1 X-43.841 Y1.596 Z7.806
G1 X-44.269 Y1.711 Z7.778
G1 X-44.710 Y1.750 Z7.750
G1 X-45.151 Y1.711 Z7.722
G1 X-45.578 Y1.596 Z7.694
G1 X-45.980 Y1.409 Z7.667
G1 X-46.342 Y1.155 Z7.639
G1 X-46.655 Y0.842 Z7.611
G1 X-46.909 Y0.480 Z7.583
G1 X-47.096 Y0.078 Z7.556
G1 X-47.211 Y-0.349 Z7.528
G1 X-47.250 Y-0.790 Z7.500
G1 X-47.211 Y-1.232 Z7.472
G1 X-47.096 Y-1.659 Z7.444
G1 X-46.909 Y-2.060 Z7.417
G1 X-46.655 Y-2.423 Z7.389
G1 X-46.342 Y-2.736 Z7.361
G1 X-45.980 Y-2.990 Z7.333
G1 X-45.578 Y-3.177 Z7.306
G1 X-45.151 Y-3.292 Z7.278
G1 X-44.710 Y-3.330 Z7.250
G1 X-44.269 Y-3.292 Z7.222
G1 X-43.841 Y-3.177 Z7.194
G1 X-43.440 Y-2.990 Z7.167
G1 X-43.077 Y-2.736 Z7.139
G1 X-42.764 Y-2.423 Z7.111
G1 X-42.510 Y-2.060 Z7.083
G1 X-42.323 Y-1.659 Z7.056
G1 X-42.208 Y-1.232 Z7.028
G1 X-42.170 Y-0.790 Z7.000
G1 X-42.208 Y-0.349 Z6.972
G1 X-42.323 Y0.078 Z6.944
G1 X-42.510 Y0.480 Z6.917
G1 X-42.764 Y0.842 Z6.889
G1 X-43.077 Y1.155 Z6.861
G1 X-43.440 Y1.409 Z6.833
G1 X-43.841 Y1.596 Z6.806
G1 X-44.269 Y1.711 Z6.778
G1 X-44.710 Y1.750 Z6.750
G1 X-45.151 Y1.711 Z6.722
G1 X-45.578 Y1.596 Z6.694
G1 X-45.980 Y1.409 Z6.667
G1 X-46.342 Y1.155 Z6.639
G1 X-46.655 Y0.842 Z6.611
G1 X-46.909 Y0.480 Z6.583
G1 X-47.096 Y0.078 Z6.556
G1 X-47.211 Y-0.349 Z6.528
G1 X-47.250 Y-0.790 Z6.500
G1 X-47.211 Y-1.232 Z6.472
G1 X-47.096 Y-1.659 Z6.444
G1 X-46.909 Y-2.060 Z6.417
G1 X-46.655 Y-2.423 Z6.389
G1 X-46.342 Y-2.736 Z6.361
G1 X-45.980 Y-2.990 Z6.333
G1 X-45.578 Y-3.177 Z6.306
G1 X-45.151 Y-3.292 Z6.278
G1 X-44.710 Y-3.330 Z6.250
G1 X-44.269 Y-3.292 Z6.222
G1 X-43.841 Y-3.177 Z6.194
G1 X-43.440 Y-2.990 Z6.167
G1 X-43.077 Y-2.736 Z6.139
G1 X-42.764 Y-2.423 Z6.111
G1 X-42.510 Y-2.060 Z6.083
G1 X-42.323 Y-1.659 Z6.056
G1 X-42.208 Y-1.232 Z6.028
G1 X-42.170 Y-0.790 Z6.000
G1 X-44.710 Y-0.790 Z6.000
G1 X-44.969 Y1.577 Z6.000 F1500
G1 X-49.856 Y6.777 Z6.000
G1 X-49.994 Y7.559 Z6.000
G1 X-49.856 Y9.904 Z6.000
G1 X-38.360 Y18.789 Z6.000
G1 X-37.732 Y19.274 Z6.000
G1 X-32.859 Y24.491 Z6.000
G1 X-31.985 Y25.809 Z6.000
G1 X-31.360 Y26.299 Z6.000
G1 X-28.112 Y29.779 Z6.000
G1 X-28.135 Y30.573 Z6.000
G1 X-27.750 Y31.267 Z6.000
G1 X-27.110 Y31.736 Z6.000
G1 X-25.480 Y33.470 Z6.000
G1 X-24.210 Y34.413 Z6.000
G1 X-23.485 Y34.737 Z6.000
G1 X-21.934 Y34.398 Z6.000
G1 X-21.250 Y33.997 Z6.000
G1 X-18.708 Y30.959 Z6.000
G1 X-15.739 Y29.834 Z6.000
G1 X-14.183 Y29.551 Z6.000
G1 X-23.014 Y24.610 Z6.000
G1 X-27.862 Y21.896 Z6.000
G1 X-29.078 Y20.876 Z6.000
G1 X-31.810 Y18.002 Z6.000
G1 X-32.065 Y16.442 Z6.000
G1 X-32.349 Y15.700 Z6.000
G1 X-41.005 Y26.726 Z6.000
G1 X-40.721 Y29.090 Z6.000
G1 X-40.262 Y30.604 Z6.000
G1 X-38.767 Y33.390 Z6.000
G1 X-36.811 Y35.885 Z6.000
G1 X-31.222 Y41.512 Z6.000
G1 X-30.539 Y41.917 Z6.000
G0 X-8.726 Y45.776 Z20.000
G0 X-8.726 Y45.776 Z8.000
G1 X-6.225 Y46.217 Z7.972 F500
G1 X-6.339 Y46.645 Z7.944
G1 X-6.527 Y47.046 Z7.917
G1 X-6.781 Y47.409 Z7.889
G1 X-7.094 Y47.722 Z7.861
G1 X-7.456 Y47.976 Z7.833
G1 X-7.858 Y48.163 Z7.806
G1 X-8.285 Y48.278 Z7.778
G1 X-8.726 Y48.316 Z7.750
G1 X-9.167 Y48.278 Z7.722
G1 X-9.595 Y48.163 Z7.694
G1 X-9.996 Y47.976 Z7.667
G1 X-10.359 Y47.722 Z7.639
G1 X-10.672 Y47.409 Z7.611
G1 X-10.926 Y47.046 Z7.583
G1 X-11.113 Y46.645 Z7.556
G1 X-11.228 Y46.217 Z7.528
G1 X-11.266 Y45.776 Z7.500
G1 X-11.228 Y45.335 Z7.472
G1 X-11.113 Y44.907 Z7.444
G1 X-10.926 Y44.506 Z7.417
G1 X-10.672 Y44.144 Z7.389
G1 X-10.359 Y43.830 Z7.361
G1 X-9.996 Y43.576 Z7.333
G1 X-9.595 Y43.389 Z7.306
G1 X-9.167 Y43.275 Z7.278
G1 X-8.726 Y43.236 Z7.250
G1 X-8.285 Y43.275 Z7.222
G1 X-7.858 Y43.389 Z7.194
G1 X-7.456 Y43.576 Z7.167
G1 X-7.094 Y43.830 Z7.139
G1 X-6.781 Y44.144 Z7.111
G1 X-6.527 Y44.506 Z7.083
G1 X-6.339 Y44.907 Z7.056
G1 X-6.225 Y45.335 Z7.028
G1 X-6.186 Y45.776 Z7.000
G1 X-6.225 Y46.217 Z6.972
G1 X-6.339 Y46.645 Z6.944
G1 X-6.527 Y47.046 Z6.917
G1 X-6.781 Y47.409 Z6.889
G1 X-7.094 Y47.722 Z6.861
G1 X-7.456 Y47.976 Z6.833
G1 X-7.858 Y48.163 Z6.806
G1 X-8.285 Y48.278 Z6.778
G1 X-8.726 Y48.316 Z6.750
G1 X-9.167 Y48.278 Z6.722
G1 X-9.595 Y48.163 Z6.694
G1 X-9.996 Y47.976 Z6.667
G1 X-10.359 Y47.722 Z6.639
G1 X-10.672 Y47.409 Z6.611
G1 X-10.926 Y47.046 Z6.583
G1 X-11.113 Y46.645 Z6.556
G1 X-11.228 Y46.217 Z6.528
G1 X-11.266 Y45.776 Z6.500
G1 X-11.228 Y45.335 Z6.472
G1 X-11.113 Y44.907 Z6.444
G1 X-10.926 Y44.506 Z6.417
G1 X-10.672 Y44.144 Z6.389
G1 X-10.359 Y43.830 Z6.361
G1 X-9.996 Y43.576 Z6.333
G1 X-9.595 Y43.389 Z6.306
G1 X-9.167 Y43.275 Z6.278
G1 X-8.726 Y43.236 Z6.250
G1 X-8.285 Y43.275 Z6.222
G1 X-7.858 Y43.389 Z6.194
G1 X-7.456 Y43.576 Z6.167
G1 X-7.094 Y43.830 Z6.139
G1 X-6.781 Y44.144 Z6.111
G1 X-6.527 Y44.506 Z6.083
G1 X-6.339 Y44.907 Z6.056
G1 X-6.225 Y45.335 Z6.028
G1 X-6.186 Y45.776 Z6.000
G1 X-8.726 Y45.776 Z6.000
G1 X-8.271 Y46.427 Z6.000 F1500
G1 X-8.203 Y47.217 Z6.000
G1 X-7.455 Y49.476 Z6.000
G1 X-8.063 Y49.987 Z6.000
G1 X-10.445 Y49.987 Z6.000
G0 X-49.472 Y46.835 Z20.000
G0 X-49.472 Y46.835 Z8.000
G1 X-46.971 Y47.276 Z7.972 F500
G1 X-47.085 Y47.703 Z7.944
G1 X-47.272 Y48.105 Z7.917
G1 X-47.526 Y48.467 Z7.889
G1 X-47.839 Y48.780 Z7.861
G1 X-48.202 Y49.034 Z7.833
G1 X-48.603 Y49.221 Z7.806
G1 X-49.031 Y49.336 Z7.778
G1 X-49.472 Y49.375 Z7.750
G1 X-49.913 Y49.336 Z7.722
G1 X-50.341 Y49.221 Z7.694
G1 X-50.742 Y49.034 Z7.667
G1 X-51.105 Y48.780 Z7.639
G1 X-51.418 Y48.467 Z7.611
G1 X-51.672 Y48.105 Z7.583
G1 X-51.859 Y47.703 Z7.556
G1 X-51.974 Y47.276 Z7.528
G1 X-52.012 Y46.835 Z7.500
G1 X-51.974 Y46.393 Z7.472
G1 X-51.859 Y45.966 Z7.444
G1 X-51.672 Y45.565 Z7.417
G1 X-51.418 Y45.202 Z7.389
G1 X-51.105 Y44.889 Z7.361
G1 X-50.742 Y44.635 Z7.333
G1 X-50.341 Y44.448 Z7.306
G1 X-49.913 Y44.333 Z7.278
G1 X-49.472 Y44.295 Z7.250
G1 X-49.031 Y44.333 Z7.222
G1 X-48.603 Y44.448 Z7.194
G1 X-48.202 Y44.635 Z7.167
G1 X-47.839 Y44.889 Z7.139
G1 X-47.526 Y45.202 Z7.111
G1 X-47.272 Y45.565 Z7.083
G1 X-47.085 Y45.966 Z7.056
G1 X-46.971 Y46.393 Z7.028
G1 X-46.932 Y46.835 Z7.000
G1 X-46.971 Y47.276 Z6.972
G1 X-47.085 Y47.703 Z6.944
G1 X-47.272 Y48.105 Z6.917
G1 X-47.526 Y48.467 Z6.889
G1 X-47.839 Y48.780 Z6.861
G1 X-48.202 Y49.034 Z6.833
G1 X-48.603 Y49.221 Z6.806
G1 X-49.031 Y49.336 Z6.778
G1 X-49.472 Y49.375 Z6.750
G1 X-49.913 Y49.336 Z6.722
G1 X-50.341 Y49.221 Z6.694
G1 X-50.742 Y49.034 Z6.667
G1 X-51.105 Y48.780 Z6.639
G1 X-51.418 Y48.467 Z6.611
G1 X-51.672 Y48.105 Z6.583
G1 X-51.859 Y47.703 Z6.556
G1 X-51.974 Y47.276 Z6.528
G1 X-52.012 Y46.835 Z6.500
G1 X-51.974 Y46.393 Z6.472
G1 X-51.859 Y45.966 Z6.444
G1 X-51.672 Y45.565 Z6.417
G1 X-51.418 Y45.202 Z6.389
G1 X-51.105 Y44.889 Z6.361
G1 X-50.742 Y44.635 Z6.333
G1 X-50.341 Y44.448 Z6.306
G1 X-49.913 Y44.333 Z6.278
G1 X-49.472 Y44.295 Z6.250
G1 X-49.031 Y44.333 Z6.222
G1 X-48.603 Y44.448 Z6.194
G1 X-48.202 Y44.635 Z6.167
G1 X-47.839 Y44.889 Z6.139
G1 X-47.526 Y45.202 Z6.111
G1 X-47.272 Y45.565 Z6.083
G1 X-47.085 Y45.966 Z6.056
G1 X-46.971 Y46.393 Z6.028
G1 X-46.932 Y46.835 Z6.000
G1 X-49.472 Y46.835 Z6.000
G1 X-49.986 Y46.230 Z6.000 F1500
G1 X-49.922 Y45.439 Z6.000
G0 X-50.001 Y45.247 Z20.000
G0 X-50.001 Y45.247 Z5.000
G1 X-47.500 Y45.688 Z4.972 F500
G1 X-47.614 Y46.116 Z4.944
G1 X-47.802 Y46.517 Z4.917
G1 X-48.056 Y46.880 Z4.889
G1 X-48.369 Y47.193 Z4.861
G1 X-48.731 Y47.447 Z4.833
G1 X-49.133 Y47.634 Z4.806
G1 X-49.560 Y47.748 Z4.778
G1 X-50.001 Y47.787 Z4.750
G1 X-50.442 Y47.748 Z4.722
G1 X-50.870 Y47.634 Z4.694
G1 X-51.271 Y47.447 Z4.667
G1 X-51.634 Y47.193 Z4.639
G1 X-51.947 Y46.880 Z4.611
G1 X-52.201 Y46.517 Z4.583
G1 X-52.388 Y46.116 Z4.556
G1 X-52.503 Y45.688 Z4.528
G1 X-52.541 Y45.247 Z4.500
G1 X-52.503 Y44.806 Z4.472
G1 X-52.388 Y44.378 Z4.444
G1 X-52.201 Y43.977 Z4.417
G1 X-51.947 Y43.614 Z4.389
G1 X-51.634 Y43.301 Z4.361
G1 X-51.271 Y43.047 Z4.333
G1 X-50.870 Y42.860 Z4.306
G1 X-50.442 Y42.746 Z4.278
G1 X-50.001 Y42.707 Z4.250
G1 X-49.560 Y42.746 Z4.222
G1 X-49.133 Y42.860 Z4.194
G1 X-48.731 Y43.047 Z4.167
G1 X-48.369 Y43.301 Z4.139
G1 X-48.056 Y43.614 Z4.111
G1 X-47.802 Y43.977 Z4.083
G1 X-47.614 Y44.378 Z4.056
G1 X-47.500 Y44.806 Z4.028
G1 X-47.461 Y45.247 Z4.000
G1 X-47.500 Y45.688 Z3.972
G1 X-47.614 Y46.116 Z3.944
G1 X-47.802 Y46.517 Z3.917
G1 X-48.056 Y46.880 Z3.889
G1 X-48.369 Y47.193 Z3.861
G1 X-48.731 Y47.447 Z3.833
G1 X-49.133 Y47.634 Z3.806
G1 X-49.560 Y47.748 Z3.778
G1 X-50.001 Y47.787 Z3.750
G1 X-50.442 Y47.748 Z3.722
G1 X-50.870 Y47.634 Z3.694
G1 X-51.271 Y47.447 Z3.667
G1 X-51.634 Y47.193 Z3.639
G1 X-51.947 Y46.880 Z3.611
G1 X-52.201 Y46.517 Z3.583
G1 X-52.388 Y46.116 Z3.556
G1 X-52.503 Y45.688 Z3.528
G1 X-52.541 Y45.247 Z3.500
G1 X-52.503 Y44.806 Z3.472
G1 X-52.388 Y44.378 Z3.444
G1 X-52.201 Y43.977 Z3.417
G1 X-51.947 Y43.614 Z3.389
G1 X-51.634 Y43.301 Z3.361
G1 X-51.271 Y43.047 Z3.333
G1 X-50.870 Y42.860 Z3.306
G1 X-50.442 Y42.746 Z3.278
G1 X-50.001 Y42.707 Z3.250
G1 X-49.560 Y42.746 Z3.222
G1 X-49.133 Y42.860 Z3.194
G1 X-48.731 Y43.047 Z3.167
G1 X-48.369 Y43.301 Z3.139
G1 X-48.056 Y43.614 Z3.111
G1 X-47.802 Y43.977 Z3.083
G1 X-47.614 Y44.378 Z3.056
G1 X-47.500 Y44.806 Z3.028
G1 X-47.461 Y45.247 Z3.000
G1 X-50.001 Y45.247 Z3.000
G1 X-49.896 Y44.460 Z3.000 F1500
G1 X-49.411 Y43.832 Z3.000
G1 X-48.780 Y43.350 Z3.000
G1 X-45.769 Y39.669 Z3.000
G1 X-42.208 Y36.517 Z3.000
G1 X-40.871 Y35.673 Z3.000
G1 X-34.891 Y33.559 Z3.000
G1 X-33.333 Y33.288 Z3.000
G1 X-32.633 Y32.914 Z3.000
G1 X-31.839 Y32.901 Z3.000
G1 X-31.149 Y32.509 Z3.000
G1 X-27.207 Y32.124 Z3.000
G1 X-26.456 Y31.867 Z3.000
G1 X-24.876 Y31.845 Z3.000
G1 X-20.202 Y32.710 Z3.000
G1 X-18.685 Y32.244 Z3.000
G1 X-17.338 Y31.428 Z3.000
G1 X-16.558 Y31.282 Z3.000
G1 X-14.646 Y29.875 Z3.000
G1 X-12.515 Y28.822 Z3.000
G1 X-11.737 Y28.667 Z3.000
G1 X-10.508 Y27.663 Z3.000
G1 X-9.741 Y27.457 Z3.000
G1 X-8.368 Y26.662 Z3.000
G1 X-7.913 Y26.011 Z3.000
G1 X-7.291 Y25.519 Z3.000
G1 X-5.799 Y23.667 Z3.000
G1 X-5.202 Y22.197 Z3.000
G1 X-4.653 Y21.624 Z3.000
G1 X-4.457 Y20.855 Z3.000
G1 X-3.735 Y19.441 Z3.000
G1 X-3.628 Y18.654 Z3.000
G1 X-2.876 Y16.397 Z3.000
G1 X-2.828 Y15.604 Z3.000
G1 X-3.064 Y14.847 Z3.000
G1 X-2.850 Y14.082 Z3.000
G1 X-3.047 Y13.313 Z3.000
G1 X-3.142 Y11.730 Z3.000
G1 X-3.574 Y10.212 Z3.000
G1 X-6.219 Y7.256 Z3.000
G1 X-7.475 Y6.296 Z3.000
G1 X-7.734 Y5.546 Z3.000
G1 X-8.260 Y4.952 Z3.000
G1 X-8.907 Y3.505 Z3.000
G1 X-9.396 Y1.997 Z3.000
G1 X-9.479 Y1.207 Z3.000
G1 X-10.031 Y0.636 Z3.000
G1 X-10.480 Y-0.874 Z3.000
G1 X-13.126 Y-3.829 Z3.000
G1 X-14.383 Y-4.788 Z3.000
G1 X-19.101 Y-7.711 Z3.000
G1 X-22.291 Y-11.242 Z3.000
G1 X-23.137 Y-12.578 Z3.000
G1 X-23.754 Y-13.077 Z3.000
G1 X-26.398 Y-16.035 Z3.000
G1 X-28.192 Y-19.570 Z3.000
G1 X-28.373 Y-20.343 Z3.000
G1 X-29.457 Y-22.448 Z3.000
G1 X-29.947 Y-23.949 Z3.000
G1 X-30.755 Y-26.189 Z3.674
G1 X-31.440 Y-26.591 Z3.763
G1 X-31.870 Y-27.258 Z3.836
G1 X-32.604 Y-27.560 Z3.941
G1 X-33.392 Y-27.651 Z4.121
G1 X-34.090 Y-28.029 Z4.229
G1 X-35.513 Y-27.325 Z4.520
G1 X-36.054 Y-26.744 Z4.638
G1 X-36.718 Y-26.310 Z4.692
G1 X-37.508 Y-26.231 Z4.739
G1 X-38.081 Y-25.683 Z4.739
G1 X-38.856 Y-25.509 Z4.864
G1 X-42.533 Y-24.024 Z5.334
G1 X-43.030 Y-23.404 Z5.334
G1 X-45.234 Y-22.538 Z5.334
G1 X-45.728 Y-21.917 Z5.334
G1 X-46.394 Y-21.485 Z5.334
G1 X-45.648 Y-21.213 Z5.334
G1 X-45.280 Y-20.510 Z5.334
G1 X-44.672 Y-21.020 Z5.334
