(Generated by rs_cam)
G17 G21 G90 G40 G49 G80
M3 S18000
G0 X0.000 Y0.000 Z5.000
G1 X0.000 Y0.000 Z-1.000 F200
G2 X0.020 Y0.020 Z-1.000 I0.020 J0.000 F400
G2 X0.000 Y0.040 Z-1.000 I-0.020 J0.000 F400
G2 X0.520 Y0.020 Z-1.000 I0.020 J0.000 F400
G2 X0.500 Y0.040 Z-1.000 I-0.020 J0.000 F400
G2 X1.020 Y0.020 Z-1.000 I0.020 J0.000 F400
G2 X1.000 Y0.040 Z-1.000 I-0.020 J0.000 F400
G2 X1.520 Y0.020 Z-1.000 I0.020 J0.000 F400
G2 X1.500 Y0.040 Z-1.000 I-0.020 J0.000 F400
G2 X2.020 Y0.020 Z-1.000 I0.020 J0.000 F400
G2 X2.000 Y0.040 Z-1.000 I-0.020 J0.000 F400
G1 X0.000 Y0.040 Z5.000 F1000
M5
G0 Z10.000
M30
