(Generated by rs_cam)
G17 G21 G90 G40 G49 G80
G54
M3 S18000
G0 X0.0000 Y0.0000 Z5.0000
G1 X0.0000 Y0.0000 Z-1.0000 F200.0
G1 X0.0200 Y0.0200 Z-1.0000 F400.0
G1 X0.0000 Y0.0400 Z-1.0000 F400.0
G1 X0.5200 Y0.0200 Z-1.0000 F400.0
G1 X0.5000 Y0.0400 Z-1.0000 F400.0
G1 X1.0200 Y0.0200 Z-1.0000 F400.0
G1 X1.0000 Y0.0400 Z-1.0000 F400.0
G1 X1.5200 Y0.0200 Z-1.0000 F400.0
G1 X1.5000 Y0.0400 Z-1.0000 F400.0
G1 X2.0200 Y0.0200 Z-1.0000 F400.0
G1 X2.0000 Y0.0400 Z-1.0000 F400.0
G1 X0.0000 Y0.0400 Z5.0000 F1000.0
M5
G53 G0 Z0
M2
