(Generated by rs_cam)
G17 G21 G90 G40 G49 G80
M3 S18000
(Op 0 — conventional CCW)
G0 X0.000 Y0.000 Z5.000
G1 X0.000 Y0.000 Z-2.000 F300
G1 X10.000 Y0.000 Z-2.000 F600
G1 X10.000 Y10.000 Z-2.000
G1 X0.000 Y10.000 Z-2.000
G1 X0.000 Y0.000 Z-2.000
(Op 1 — climb CW)
G0 X0.000 Y0.000 Z5.000
G1 X0.000 Y0.000 Z-2.000 F300
G1 X0.000 Y10.000 Z-2.000 F600
G1 X10.000 Y10.000 Z-2.000
G1 X10.000 Y0.000 Z-2.000
G1 X0.000 Y0.000 Z-2.000
M5
G0 Z10.000
M30
