(Generated by rs_cam)
G17 G21 G90 G40 G49 G80
G54
M3 S18000
G0 X0.0000 Y0.0000 Z5.0000
G1 X0.0000 Y0.0000 Z-2.0000 F300.0
G1 X20.0000 Y0.0000 Z-2.0000 F600.0
G1 X20.0000 Y10.0000 Z-2.0000
G1 X0.0000 Y10.0000 Z-2.0000
G1 X0.0000 Y0.0000 Z-2.0000
G0 X0.0000 Y0.0000 Z5.0000
G1 X0.0000 Y0.0000 Z-4.0000 F300.0
G1 X20.0000 Y0.0000 Z-4.0000 F600.0
G1 X20.0000 Y10.0000 Z-4.0000
G1 X0.0000 Y10.0000 Z-4.0000
G1 X0.0000 Y0.0000 Z-4.0000
G0 X0.0000 Y0.0000 Z5.0000
G1 X0.0000 Y0.0000 Z-6.0000 F300.0
G1 X20.0000 Y0.0000 Z-6.0000 F600.0
G1 X20.0000 Y10.0000 Z-6.0000
G1 X0.0000 Y10.0000 Z-6.0000
G1 X0.0000 Y0.0000 Z-6.0000
M5
G53 G0 Z0
M2
