(Generated by rs_cam)
G17 G21 G90 G40 G80
M3 S18000
G4 P2
G0 X0.0000 Y0.0000 Z5.0000
G1 X0.0000 Y0.0000 Z-1.0000 F200.0
G1 X10.0000 Y0.0000 Z-1.0000 F600.0
G1 X20.0000 Y0.0000 Z-1.0000
G1 X30.0000 Y0.0000 Z-1.0000
G1 X40.0000 Y0.0000 Z-1.0000
G1 X50.0000 Y0.0000 Z-1.0000
G1 X50.0000 Y0.0000 Z5.0000 F1000.0
M5
G0 Z10.000
G28 G91 Z0
M30
